;FLAVOR:Marlin
;TIME:18353
;Filament used: 11.9141m
;Layer height: 0.2
;MINX:89
;MINY:39.053
;MINZ:0.2
;MAXX:161.693
;MAXY:180.947
;MAXZ:20
;Generated with Cura_SteamEngine 4.8.0
M140 S60
M105
M190 S60
M104 S200
M105
M109 S200
M82 ;absolute extrusion mode
; Script based on an original created by tjjfvi (https://github.com/tjjfvi)
; An up-to-date version of the tjjfvi's original script can be found
; here:  https://csi.t6.fyi/
; Note - This script will only work in Cura V4.2 and above!
; --- Global Settings
; layer_height = 0.2
; smooth_spiralized_contours = True
; magic_mesh_surface_mode = normal
; machine_extruder_count = 1
; --- Single Extruder Settings
; speed_z_hop = 5
; retraction_amount = 6.5
; retraction_hop = 0.2
; retraction_hop_enabled = False
; retraction_enable = True
; retraction_speed = 25
; retraction_retract_speed = 25
; retraction_prime_speed = 25
; speed_travel = 150.0
; Ender 3 Custom Start G-code
G92 E0 ; Reset Extruder
G28 ; Home all axes
G1 Z2.0 F3000 ; Move Z Axis up little to prevent scratching of Heat Bed
G1 X0.1 Y20 Z0.3 F5000.0 ; Move to start position
G1 X0.1 Y200.0 Z0.3 F1500.0 E15 ; Draw the first line
G1 X0.4 Y200.0 Z0.3 F5000.0 ; Move to side a little
G1 X0.4 Y20 Z0.3 F1500.0 E30 ; Draw the second line
G92 E0 ; Reset Extruder
G1 Z2.0 F3000 ; Move Z Axis up little to prevent scratching of Heat Bed
G1 X5 Y20 Z0.3 F5000.0 ; Move over to prevent blob squish
G92 E0
G92 E0
G1 F1500 E-6.5
;LAYER_COUNT:100
;LAYER:0
M107
G0 F6000 X90.057 Y45.377 Z0.2
;TYPE:SKIRT
G1 F1500 E0
G1 F600 X90.492 Y44.546 E0.0312
G1 X90.996 Y43.756 E0.06236
G1 X91.566 Y43.011 E0.09356
G1 X92.198 Y42.317 E0.12478
G1 X92.886 Y41.68 E0.15597
G1 X93.626 Y41.104 E0.18716
G1 X94.412 Y40.592 E0.21836
G1 X95.239 Y40.15 E0.24955
G1 X96.101 Y39.78 E0.28075
G1 X96.991 Y39.484 E0.31194
G1 X97.903 Y39.266 E0.34313
G1 X98.83 Y39.125 E0.37432
G1 X99.701 Y39.066 E0.40335
G1 X100.022 Y39.057 E0.41403
G1 X100.33 Y39.053 E0.42428
G1 X119.293 Y39.053 E1.05499
G1 X120.151 Y39.064 E1.08353
G1 X121.087 Y39.117 E1.11471
G1 X122.016 Y39.25 E1.14592
G1 X122.929 Y39.462 E1.1771
G1 X123.822 Y39.75 E1.20831
G1 X124.686 Y40.114 E1.23949
G1 X125.517 Y40.55 E1.2707
G1 X126.307 Y41.055 E1.30189
G1 X127.051 Y41.625 E1.33306
G1 X127.744 Y42.257 E1.36426
G1 X128.381 Y42.946 E1.39546
G1 X128.957 Y43.686 E1.42665
G1 X129.468 Y44.473 E1.45786
G1 X129.909 Y45.3 E1.48904
G1 X130.143 Y45.821 E1.50803
G1 X130.616 Y46.952 E1.54881
G1 X131.636 Y49.292 E1.63371
G1 X132.716 Y51.589 E1.71813
G1 X133.856 Y53.849 E1.80232
G1 X135.044 Y56.049 E1.88548
G1 X136.306 Y58.229 E1.96926
G1 X137.615 Y60.352 E2.05221
G1 X139.027 Y62.505 E2.13785
G1 X140.437 Y64.526 E2.21981
G1 X141.95 Y66.57 E2.30439
G1 X143.499 Y68.544 E2.38785
G1 X145.109 Y70.48 E2.4716
G1 X146.789 Y72.386 E2.5561
G1 X148.483 Y74.204 E2.63875
G1 X150.246 Y75.992 E2.72227
G1 X152.096 Y77.764 E2.80747
G1 X153.925 Y79.418 E2.88949
G1 X155.86 Y81.072 E2.97415
G1 X157.357 Y82.281 E3.03815
G1 X157.701 Y82.566 E3.05301
G1 X158.397 Y83.195 E3.08421
G1 X159.037 Y83.881 E3.11542
G1 X159.616 Y84.618 E3.14659
G1 X160.13 Y85.402 E3.17777
G1 X160.576 Y86.228 E3.20899
G1 X160.95 Y87.088 E3.24018
G1 X161.249 Y87.977 E3.27138
G1 X161.471 Y88.888 E3.30257
G1 X161.615 Y89.815 E3.33377
G1 X161.678 Y90.7 E3.36328
G1 X161.688 Y91.026 E3.37413
G1 X161.693 Y91.363 E3.38534
G1 X161.692 Y107.787 E3.9316
G1 X161.667 Y109.545 E3.99008
G1 X161.66 Y111.579 E4.05773
G1 X161.663 Y111.959 E4.07037
G1 X161.662 Y128.417 E4.61776
G1 X161.652 Y129.118 E4.64108
G1 X161.599 Y130.054 E4.67226
G1 X161.466 Y130.983 E4.70348
G1 X161.254 Y131.896 E4.73465
G1 X160.966 Y132.789 E4.76586
G1 X160.602 Y133.653 E4.79704
G1 X160.166 Y134.484 E4.82825
G1 X159.661 Y135.274 E4.85944
G1 X159.091 Y136.018 E4.89061
G1 X158.459 Y136.711 E4.92181
G1 X157.571 Y137.513 E4.96161
G1 X156.88 Y138.072 E4.99117
G1 X154.833 Y139.776 E5.07975
G1 X152.967 Y141.419 E5.16245
G1 X151.113 Y143.147 E5.24674
G1 X149.339 Y144.896 E5.3296
G1 X147.577 Y146.737 E5.41436
G1 X145.881 Y148.61 E5.4984
G1 X144.278 Y150.486 E5.58047
G1 X142.666 Y152.482 E5.6658
G1 X141.167 Y154.451 E5.74811
G1 X139.68 Y156.525 E5.83299
G1 X138.282 Y158.593 E5.91601
G1 X136.93 Y160.723 E5.99992
G1 X135.64 Y162.885 E6.08366
G1 X134.403 Y165.099 E6.16801
G1 X133.254 Y167.304 E6.25071
G1 X132.134 Y169.605 E6.33583
G1 X131.116 Y171.859 E6.41809
G1 X130.183 Y174.089 E6.49849
G1 X130.09 Y174.304 E6.50628
G1 X129.681 Y175.148 E6.53747
G1 X129.202 Y175.954 E6.56866
G1 X128.656 Y176.717 E6.59986
G1 X128.047 Y177.43 E6.63105
G1 X127.379 Y178.089 E6.66226
G1 X126.658 Y178.688 E6.69344
G1 X125.889 Y179.224 E6.72461
G1 X125.076 Y179.693 E6.75583
G1 X124.226 Y180.09 E6.78703
G1 X123.346 Y180.414 E6.81822
G1 X122.442 Y180.661 E6.84939
G1 X121.519 Y180.831 E6.88061
G1 X120.333 Y180.932 E6.9202
G1 X120.009 Y180.942 E6.93098
G1 X119.67 Y180.947 E6.94225
G1 X100.565 Y180.946 E7.57769
G1 X99.867 Y180.937 E7.60091
G1 X98.931 Y180.885 E7.63209
G1 X98.002 Y180.753 E7.6633
G1 X97.088 Y180.543 E7.69449
G1 X96.195 Y180.256 E7.72568
G1 X95.33 Y179.893 E7.75689
G1 X94.499 Y179.459 E7.78807
G1 X93.708 Y178.955 E7.81926
G1 X92.963 Y178.385 E7.85046
G1 X92.269 Y177.754 E7.88166
G1 X91.632 Y177.067 E7.91282
G1 X91.055 Y176.327 E7.94403
G1 X90.543 Y175.541 E7.97523
G1 X90.1 Y174.714 E8.00643
G1 X89.729 Y173.853 E8.03762
G1 X89.433 Y172.963 E8.06881
G1 X89.214 Y172.051 E8.10001
G1 X89.073 Y171.124 E8.13119
G1 X89.013 Y170.235 E8.16083
G1 X89.004 Y169.902 E8.17191
G1 X89 Y169.605 E8.18179
G1 X89.001 Y50.578 E12.14064
G1 X89.01 Y49.913 E12.16276
G1 X89.063 Y48.977 E12.19394
G1 X89.195 Y48.048 E12.22515
G1 X89.406 Y47.134 E12.25635
G1 X89.694 Y46.242 E12.28753
G1 X90.057 Y45.377 E12.31873
G0 F6000 X90.455 Y45.471
G1 F600 X90.889 Y44.659 E12.34935
G1 X91.392 Y43.888 E12.37997
G1 X91.961 Y43.164 E12.4106
G1 X92.589 Y42.492 E12.44119
G1 X93.274 Y41.876 E12.47183
G1 X94.01 Y41.323 E12.50245
G1 X94.791 Y40.835 E12.53308
G1 X95.611 Y40.417 E12.56369
G1 X96.465 Y40.072 E12.59433
G1 X97.345 Y39.802 E12.62494
G1 X98.245 Y39.61 E12.65555
G1 X99.159 Y39.496 E12.68618
G1 X99.712 Y39.466 E12.7046
G1 X100.033 Y39.457 E12.71528
G1 X100.33 Y39.453 E12.72516
G1 X119.293 Y39.453 E13.35588
G1 X120.145 Y39.464 E13.38422
G1 X121.064 Y39.517 E13.41483
G1 X121.975 Y39.65 E13.44545
G1 X122.871 Y39.861 E13.47607
G1 X123.746 Y40.149 E13.50671
G1 X124.592 Y40.512 E13.53733
G1 X125.403 Y40.947 E13.56794
G1 X126.174 Y41.451 E13.59857
G1 X126.898 Y42.02 E13.6292
G1 X127.57 Y42.649 E13.65981
G1 X128.185 Y43.334 E13.69043
G1 X128.738 Y44.07 E13.72105
G1 X129.225 Y44.852 E13.75169
G1 X129.774 Y45.976 E13.7933
G1 X130.228 Y47.061 E13.83242
G1 X131.279 Y49.472 E13.9199
G1 X132.361 Y51.775 E14.00453
G1 X133.499 Y54.03 E14.08854
G1 X134.689 Y56.233 E14.17182
G1 X135.963 Y58.434 E14.2564
G1 X137.3 Y60.602 E14.34112
G1 X138.681 Y62.708 E14.42488
G1 X140.12 Y64.77 E14.50851
G1 X141.612 Y66.787 E14.59196
G1 X143.211 Y68.823 E14.67806
G1 X144.8 Y70.735 E14.76075
G1 X146.463 Y72.621 E14.84438
G1 X148.223 Y74.51 E14.93025
G1 X149.967 Y76.279 E15.01288
G1 X151.798 Y78.032 E15.09719
G1 X153.68 Y79.736 E15.18163
G1 X155.615 Y81.389 E15.26627
G1 X157.102 Y82.589 E15.32983
G1 X157.446 Y82.874 E15.34468
G1 X158.128 Y83.492 E15.37529
G1 X158.755 Y84.167 E15.40594
G1 X159.321 Y84.893 E15.43655
G1 X159.821 Y85.666 E15.46717
G1 X160.253 Y86.479 E15.4978
G1 X160.612 Y87.326 E15.52839
G1 X160.897 Y88.202 E15.55903
G1 X161.104 Y89.099 E15.58965
G1 X161.233 Y90.01 E15.62025
G1 X161.278 Y90.712 E15.64365
G1 X161.288 Y91.038 E15.6545
G1 X161.293 Y91.363 E15.66531
G1 X161.292 Y107.781 E16.21137
G1 X161.267 Y109.538 E16.26982
G1 X161.26 Y111.582 E16.3378
G1 X161.263 Y111.962 E16.35044
G1 X161.262 Y128.411 E16.89754
G1 X161.252 Y129.112 E16.92085
G1 X161.199 Y130.031 E16.95147
G1 X161.066 Y130.942 E16.98209
G1 X160.855 Y131.838 E17.01271
G1 X160.567 Y132.713 E17.04335
G1 X160.204 Y133.559 E17.07397
G1 X159.769 Y134.37 E17.10457
G1 X159.265 Y135.141 E17.13521
G1 X158.696 Y135.865 E17.16584
G1 X158.067 Y136.537 E17.19645
G1 X157.319 Y137.202 E17.22974
G1 X156.614 Y137.772 E17.25989
G1 X154.578 Y139.466 E17.34799
G1 X152.693 Y141.127 E17.43155
G1 X150.861 Y142.835 E17.51486
G1 X149.036 Y144.634 E17.60009
G1 X147.292 Y146.455 E17.68395
G1 X145.595 Y148.33 E17.76806
G1 X143.964 Y150.238 E17.85155
G1 X142.352 Y152.235 E17.93691
G1 X140.827 Y154.237 E18.02062
G1 X139.368 Y156.273 E18.10392
G1 X137.94 Y158.385 E18.18872
G1 X136.581 Y160.525 E18.27304
G1 X135.29 Y162.691 E18.3569
G1 X134.072 Y164.872 E18.43999
G1 X132.883 Y167.151 E18.52548
G1 X131.788 Y169.402 E18.60874
G1 X130.741 Y171.718 E18.69328
G1 X129.816 Y173.93 E18.77302
G1 X129.723 Y174.145 E18.78081
G1 X129.321 Y174.974 E18.81146
G1 X128.849 Y175.764 E18.84207
G1 X128.31 Y176.51 E18.87268
G1 X127.708 Y177.207 E18.90331
G1 X127.048 Y177.849 E18.93393
G1 X126.335 Y178.431 E18.96454
G1 X125.574 Y178.949 E18.99516
G1 X124.771 Y179.4 E19.02579
G1 X123.932 Y179.778 E19.0564
G1 X123.063 Y180.083 E19.08703
G1 X122.171 Y180.311 E19.11765
G1 X121.263 Y180.461 E19.14826
G1 X120.321 Y180.532 E19.17968
G1 X119.997 Y180.542 E19.19047
G1 X119.67 Y180.547 E19.20134
G1 X100.57 Y180.546 E19.83661
G1 X99.872 Y180.537 E19.85983
G1 X98.953 Y180.485 E19.89044
G1 X98.042 Y180.354 E19.92106
G1 X97.146 Y180.144 E19.95166
G1 X96.271 Y179.857 E19.98229
G1 X95.424 Y179.495 E20.01293
G1 X94.612 Y179.061 E20.04355
G1 X93.841 Y178.559 E20.07415
G1 X93.116 Y177.991 E20.10478
G1 X92.443 Y177.362 E20.13542
G1 X91.828 Y176.678 E20.16602
G1 X91.274 Y175.943 E20.19663
G1 X90.786 Y175.162 E20.22726
G1 X90.367 Y174.342 E20.25789
G1 X90.021 Y173.489 E20.2885
G1 X89.751 Y172.609 E20.31912
G1 X89.558 Y171.708 E20.34977
G1 X89.444 Y170.795 E20.38037
G1 X89.413 Y170.224 E20.39939
G1 X89.404 Y169.891 E20.41047
G1 X89.4 Y169.605 E20.41998
G1 X89.401 Y50.584 E24.37864
G1 X89.41 Y49.919 E24.40076
G1 X89.462 Y48.999 E24.4314
G1 X89.594 Y48.088 E24.46202
G1 X89.805 Y47.192 E24.49264
G1 X90.092 Y46.317 E24.52326
G1 X90.455 Y45.471 E24.55388
G0 F6000 X90.853 Y45.567
G1 F600 X91.286 Y44.775 E24.5839
G1 X91.788 Y44.024 E24.61395
G1 X92.355 Y43.32 E24.64401
G1 X92.981 Y42.67 E24.67403
G1 X93.662 Y42.077 E24.70406
G1 X94.394 Y41.547 E24.73412
G1 X95.169 Y41.084 E24.76415
G1 X95.982 Y40.691 E24.79418
G1 X96.827 Y40.371 E24.82423
G1 X97.696 Y40.128 E24.85425
G1 X98.584 Y39.962 E24.88429
G1 X99.723 Y39.866 E24.92231
G1 X100.044 Y39.857 E24.93299
G1 X100.33 Y39.853 E24.9425
G1 X119.293 Y39.853 E25.57322
G1 X120.139 Y39.864 E25.60136
G1 X121.041 Y39.917 E25.63141
G1 X121.934 Y40.049 E25.66143
G1 X122.813 Y40.26 E25.6915
G1 X123.669 Y40.548 E25.72154
G1 X124.496 Y40.91 E25.75156
G1 X125.288 Y41.344 E25.7816
G1 X126.038 Y41.847 E25.81164
G1 X126.741 Y42.414 E25.84168
G1 X127.391 Y43.04 E25.87169
G1 X127.984 Y43.722 E25.90175
G1 X128.513 Y44.454 E25.93179
G1 X128.976 Y45.229 E25.96182
G1 X129.405 Y46.13 E25.99501
G1 X129.873 Y47.25 E26.03538
G1 X130.914 Y49.637 E26.12199
G1 X131.993 Y51.933 E26.20637
G1 X133.148 Y54.222 E26.29165
G1 X134.343 Y56.432 E26.37521
G1 X135.625 Y58.649 E26.46039
G1 X136.958 Y60.809 E26.54481
G1 X138.346 Y62.927 E26.62903
G1 X139.786 Y64.991 E26.71274
G1 X141.309 Y67.049 E26.79789
G1 X142.873 Y69.041 E26.88213
G1 X144.508 Y71.008 E26.9672
G1 X146.188 Y72.913 E27.05168
G1 X147.928 Y74.781 E27.13659
G1 X149.688 Y76.566 E27.21996
G1 X151.518 Y78.319 E27.30425
G1 X153.415 Y80.035 E27.38933
G1 X155.349 Y81.689 E27.47397
G1 X156.846 Y82.897 E27.53795
G1 X157.19 Y83.182 E27.55281
G1 X157.86 Y83.789 E27.58288
G1 X158.473 Y84.452 E27.61291
G1 X159.025 Y85.167 E27.64295
G1 X159.511 Y85.928 E27.67298
G1 X159.928 Y86.729 E27.70302
G1 X160.273 Y87.563 E27.73304
G1 X160.543 Y88.425 E27.76308
G1 X160.735 Y89.308 E27.79314
G1 X160.849 Y90.204 E27.82318
G1 X160.878 Y90.724 E27.8405
G1 X160.888 Y91.05 E27.85135
G1 X160.893 Y91.363 E27.86176
G1 X160.892 Y107.775 E28.40762
G1 X160.867 Y109.531 E28.46604
G1 X160.86 Y111.585 E28.53435
G1 X160.863 Y111.965 E28.54699
G1 X160.862 Y128.405 E29.09379
G1 X160.852 Y129.106 E29.11711
G1 X160.799 Y130.008 E29.14716
G1 X160.667 Y130.901 E29.17718
G1 X160.456 Y131.78 E29.20725
G1 X160.168 Y132.636 E29.23729
G1 X159.806 Y133.463 E29.26731
G1 X159.372 Y134.255 E29.29735
G1 X158.869 Y135.005 E29.32739
G1 X158.302 Y135.708 E29.35743
G1 X157.676 Y136.358 E29.38744
G1 X157.068 Y136.891 E29.41433
G1 X156.356 Y137.467 E29.44479
G1 X154.321 Y139.16 E29.53284
G1 X152.44 Y140.818 E29.61624
G1 X150.554 Y142.576 E29.70199
G1 X148.765 Y144.338 E29.78551
G1 X146.989 Y146.194 E29.87095
G1 X145.295 Y148.066 E29.95492
G1 X143.632 Y150.011 E30.04003
G1 X142.069 Y151.948 E30.12281
G1 X140.5 Y154.008 E30.20894
G1 X139.027 Y156.062 E30.29301
G1 X137.604 Y158.168 E30.37754
G1 X136.259 Y160.285 E30.46097
G1 X134.94 Y162.497 E30.54662
G1 X133.711 Y164.698 E30.63047
G1 X132.526 Y166.97 E30.7157
G1 X131.421 Y169.241 E30.7997
G1 X130.378 Y171.548 E30.88391
G1 X129.449 Y173.771 E30.96404
G1 X129.356 Y173.986 E30.97183
G1 X128.961 Y174.799 E31.00189
G1 X128.496 Y175.573 E31.03193
G1 X127.964 Y176.303 E31.06197
G1 X127.37 Y176.983 E31.092
G1 X126.717 Y177.607 E31.12204
G1 X126.013 Y178.172 E31.15206
G1 X125.261 Y178.672 E31.1821
G1 X124.467 Y179.104 E31.21216
G1 X123.639 Y179.464 E31.24219
G1 X122.782 Y179.749 E31.27223
G1 X121.903 Y179.957 E31.30228
G1 X121.009 Y180.086 E31.33232
G1 X120.309 Y180.132 E31.35565
G1 X119.985 Y180.142 E31.36643
G1 X119.67 Y180.147 E31.37691
G1 X100.575 Y180.146 E32.01201
G1 X99.877 Y180.137 E32.03523
G1 X98.976 Y180.086 E32.06524
G1 X98.082 Y179.954 E32.0953
G1 X97.204 Y179.745 E32.12532
G1 X96.347 Y179.458 E32.15538
G1 X95.52 Y179.097 E32.18539
G1 X94.727 Y178.664 E32.21544
G1 X93.976 Y178.163 E32.24547
G1 X93.272 Y177.597 E32.27551
G1 X92.621 Y176.971 E32.30555
G1 X92.028 Y176.29 E32.33559
G1 X91.498 Y175.559 E32.36562
G1 X91.034 Y174.784 E32.39566
G1 X90.64 Y173.971 E32.42571
G1 X90.32 Y173.127 E32.45573
G1 X90.076 Y172.257 E32.48578
G1 X89.91 Y171.369 E32.51583
G1 X89.813 Y170.214 E32.55438
G1 X89.804 Y169.881 E32.56546
G1 X89.8 Y169.605 E32.57464
G1 X89.801 Y50.589 E36.53313
G1 X89.81 Y49.924 E36.55525
G1 X89.862 Y49.022 E36.5853
G1 X89.994 Y48.129 E36.61532
G1 X90.204 Y47.251 E36.64535
G1 X90.491 Y46.394 E36.67541
G1 X90.853 Y45.567 E36.70544
G1 F1500 E30.20544
G0 F6000 X120.157 Y49.392
G0 X120.661 Y49.896
G0 X122.937 Y108.522
G0 X123.441 Y109.026
G0 X127.821 Y109.026
G0 X136.698 Y103.721
G1 F1500 E36.70544
G1 F600 X136.858 Y103.721 E36.71076
G1 X136.858 Y104.916 E36.7505
G1 X136.929 Y105.649 E36.775
G1 X136.965 Y105.832 E36.7812
G1 X137.155 Y106.483 E36.80376
G1 X137.658 Y107.769 E36.84968
G1 X137.658 Y107.99 E36.85704
G1 X137.497 Y108.376 E36.87095
G1 X137.322 Y108.899 E36.88929
G1 X137.225 Y109.441 E36.9076
G1 X137.204 Y109.839 E36.92086
G1 X137.204 Y110.237 E36.9341
G1 X137.244 Y110.787 E36.95244
G1 X137.363 Y111.325 E36.97076
G1 X137.497 Y111.699 E36.98398
G1 X137.627 Y112.011 E36.99522
G1 X137.627 Y112.23 E37.0025
G1 X137.124 Y113.515 E37.0484
G1 X136.934 Y114.167 E37.07099
G1 X136.898 Y114.35 E37.07719
G1 X136.827 Y115.083 E37.10168
G1 X136.827 Y116.279 E37.14146
G1 X136.668 Y116.279 E37.14675
G1 X136.668 Y114.928 E37.19169
G1 X136.628 Y114.378 E37.21003
G1 X136.509 Y113.84 E37.22835
G1 X136.313 Y113.325 E37.24668
G1 X136.045 Y112.844 E37.265
G1 X135.555 Y112.241 E37.29084
G1 X134.969 Y111.655 E37.3184
G1 X134.552 Y111.295 E37.33673
G1 X134.088 Y110.998 E37.35505
G1 X133.585 Y110.772 E37.37339
G1 X133.055 Y110.621 E37.39172
G1 X132.28 Y110.542 E37.41763
G1 X132.158 Y110.542 E37.42169
G1 X132.178 Y110.16 E37.43441
G1 X132.178 Y109.762 E37.44765
G1 X132.156 Y109.457 E37.45782
G1 X132.31 Y109.457 E37.46294
G1 X132.86 Y109.417 E37.48128
G1 X133.398 Y109.299 E37.4996
G1 X133.913 Y109.103 E37.51793
G1 X134.394 Y108.836 E37.53623
G1 X134.999 Y108.344 E37.56216
G1 X135.585 Y107.758 E37.58973
G1 X135.945 Y107.341 E37.60805
G1 X136.242 Y106.877 E37.62637
G1 X136.468 Y106.374 E37.64471
G1 X136.619 Y105.844 E37.66304
G1 X136.698 Y105.071 E37.68889
G1 X136.698 Y103.721 E37.73379
G0 F6000 X136.298 Y103.321
G1 F600 X137.258 Y103.321 E37.76572
