;FLAVOR:Marlin
;TIME:13828
;Filament used: 9.65762m
;Layer height: 0.2
;MINX:89
;MINY:39.053
;MINZ:0.2
;MAXX:131
;MAXY:180.947
;MAXZ:20
;Generated with Cura_SteamEngine 4.8.0
M140 S60
M105
M190 S60
M104 S200
M105
M109 S200
M82 ;absolute extrusion mode
; Script based on an original created by tjjfvi (https://github.com/tjjfvi)
; An up-to-date version of the tjjfvi's original script can be found
; here:  https://csi.t6.fyi/
; Note - This script will only work in Cura V4.2 and above!
; --- Global Settings
; layer_height = 0.2
; smooth_spiralized_contours = True
; magic_mesh_surface_mode = normal
; machine_extruder_count = 1
; --- Single Extruder Settings
; speed_z_hop = 5
; retraction_amount = 6.5
; retraction_hop = 0.2
; retraction_hop_enabled = False
; retraction_enable = True
; retraction_speed = 25
; retraction_retract_speed = 25
; retraction_prime_speed = 25
; speed_travel = 150.0
; Ender 3 Custom Start G-code
G92 E0 ; Reset Extruder
G28 ; Home all axes
G1 Z2.0 F3000 ; Move Z Axis up little to prevent scratching of Heat Bed
G1 X0.1 Y20 Z0.3 F5000.0 ; Move to start position
G1 X0.1 Y200.0 Z0.3 F1500.0 E15 ; Draw the first line
G1 X0.4 Y200.0 Z0.3 F5000.0 ; Move to side a little
G1 X0.4 Y20 Z0.3 F1500.0 E30 ; Draw the second line
G92 E0 ; Reset Extruder
G1 Z2.0 F3000 ; Move Z Axis up little to prevent scratching of Heat Bed
G1 X5 Y20 Z0.3 F5000.0 ; Move over to prevent blob squish
G92 E0
G92 E0
G1 F1500 E-6.5
;LAYER_COUNT:100
;LAYER:0
M107
G0 F6000 X90.057 Y45.377 Z0.2
;TYPE:SKIRT
G1 F1500 E0
G1 F600 X90.492 Y44.546 E0.0312
G1 X90.996 Y43.756 E0.06236
G1 X91.566 Y43.011 E0.09356
G1 X92.198 Y42.317 E0.12478
G1 X92.886 Y41.68 E0.15597
G1 X93.626 Y41.104 E0.18716
G1 X94.412 Y40.592 E0.21836
G1 X95.239 Y40.15 E0.24955
G1 X96.101 Y39.78 E0.28075
G1 X96.991 Y39.484 E0.31194
G1 X97.903 Y39.266 E0.34313
G1 X98.83 Y39.125 E0.37432
G1 X99.701 Y39.066 E0.40335
G1 X100.022 Y39.057 E0.41403
G1 X100.33 Y39.053 E0.42428
G1 X119.293 Y39.053 E1.05499
G1 X120.149 Y39.064 E1.08346
G1 X121.085 Y39.118 E1.11465
G1 X122.013 Y39.25 E1.14582
G1 X122.927 Y39.462 E1.17703
G1 X123.819 Y39.751 E1.20822
G1 X124.684 Y40.114 E1.23942
G1 X125.514 Y40.55 E1.2706
G1 X126.305 Y41.055 E1.30181
G1 X127.049 Y41.626 E1.33301
G1 X127.742 Y42.258 E1.3642
G1 X128.379 Y42.946 E1.39539
G1 X128.954 Y43.687 E1.42658
G1 X129.465 Y44.473 E1.45776
G1 X129.907 Y45.301 E1.48898
G1 X130.276 Y46.163 E1.52017
G1 X130.571 Y47.053 E1.55135
G1 X130.789 Y47.965 E1.58254
G1 X130.929 Y48.893 E1.61375
G1 X130.987 Y49.754 E1.64246
G1 X130.996 Y50.074 E1.6531
G1 X131 Y50.383 E1.66338
G1 X130.999 Y169.347 E5.62014
G1 X130.99 Y170.074 E5.64432
G1 X130.939 Y171.011 E5.67553
G1 X130.807 Y171.939 E5.70671
G1 X130.598 Y172.853 E5.73789
G1 X130.311 Y173.746 E5.76909
G1 X129.949 Y174.612 E5.80031
G1 X129.515 Y175.443 E5.83149
G1 X129.011 Y176.234 E5.86269
G1 X128.442 Y176.979 E5.89387
G1 X127.811 Y177.674 E5.92509
G1 X127.124 Y178.312 E5.95627
G1 X126.385 Y178.889 E5.98746
G1 X125.599 Y179.401 E6.01866
G1 X124.773 Y179.844 E6.04983
G1 X123.911 Y180.216 E6.08106
G1 X123.022 Y180.512 E6.11222
G1 X122.11 Y180.732 E6.14342
G1 X121.183 Y180.873 E6.17461
G1 X120.299 Y180.934 E6.20408
G1 X119.978 Y180.943 E6.21476
G1 X119.67 Y180.947 E6.22501
G1 X100.565 Y180.946 E6.86044
G1 X99.867 Y180.937 E6.88366
G1 X98.931 Y180.885 E6.91484
G1 X98.002 Y180.753 E6.94605
G1 X97.088 Y180.543 E6.97724
G1 X96.195 Y180.256 E7.00844
G1 X95.33 Y179.893 E7.03964
G1 X94.499 Y179.459 E7.07082
G1 X93.708 Y178.955 E7.10202
G1 X92.963 Y178.385 E7.13321
G1 X92.269 Y177.754 E7.16441
G1 X91.632 Y177.067 E7.19557
G1 X91.055 Y176.327 E7.22678
G1 X90.543 Y175.541 E7.25798
G1 X90.1 Y174.714 E7.28919
G1 X89.729 Y173.853 E7.32037
G1 X89.433 Y172.963 E7.35156
G1 X89.214 Y172.051 E7.38276
G1 X89.073 Y171.124 E7.41395
G1 X89.013 Y170.235 E7.44358
G1 X89.004 Y169.902 E7.45466
G1 X89 Y169.605 E7.46454
G1 X89.001 Y50.578 E11.4234
G1 X89.01 Y49.913 E11.44552
G1 X89.063 Y48.977 E11.4767
G1 X89.195 Y48.048 E11.50791
G1 X89.406 Y47.134 E11.53911
G1 X89.694 Y46.242 E11.57028
G1 X90.057 Y45.377 E11.60148
G0 F6000 X90.455 Y45.471
G1 F600 X90.889 Y44.659 E11.6321
G1 X91.392 Y43.888 E11.66272
G1 X91.961 Y43.164 E11.69335
G1 X92.589 Y42.492 E11.72394
G1 X93.274 Y41.876 E11.75458
G1 X94.01 Y41.323 E11.7852
G1 X94.791 Y40.835 E11.81583
G1 X95.611 Y40.417 E11.84644
G1 X96.465 Y40.072 E11.87708
G1 X97.345 Y39.802 E11.90769
G1 X98.245 Y39.61 E11.9383
G1 X99.159 Y39.496 E11.96894
G1 X99.712 Y39.466 E11.98736
G1 X100.033 Y39.457 E11.99804
G1 X100.33 Y39.453 E12.00792
G1 X119.293 Y39.453 E12.63863
G1 X120.143 Y39.464 E12.6669
G1 X121.062 Y39.517 E12.69752
G1 X121.973 Y39.65 E12.72814
G1 X122.869 Y39.861 E12.75876
G1 X123.743 Y40.149 E12.78936
G1 X124.59 Y40.512 E12.82001
G1 X125.401 Y40.947 E12.85062
G1 X126.171 Y41.451 E12.88123
G1 X126.895 Y42.02 E12.91186
G1 X127.567 Y42.65 E12.94249
G1 X128.182 Y43.335 E12.97311
G1 X128.735 Y44.071 E13.00373
G1 X129.222 Y44.852 E13.03434
G1 X129.639 Y45.673 E13.06497
G1 X129.984 Y46.527 E13.09561
G1 X130.253 Y47.407 E13.12621
G1 X130.445 Y48.308 E13.15685
G1 X130.558 Y49.221 E13.18745
G1 X130.587 Y49.765 E13.20557
G1 X130.596 Y50.085 E13.21622
G1 X130.6 Y50.383 E13.22613
G1 X130.599 Y169.342 E17.18272
G1 X130.59 Y170.069 E17.2069
G1 X130.539 Y170.988 E17.23752
G1 X130.408 Y171.9 E17.26816
G1 X130.198 Y172.796 E17.29877
G1 X129.912 Y173.671 E17.32939
G1 X129.551 Y174.518 E17.36001
G1 X129.117 Y175.33 E17.39063
G1 X128.615 Y176.102 E17.42126
G1 X128.047 Y176.827 E17.45189
G1 X127.419 Y177.5 E17.48251
G1 X126.735 Y178.116 E17.51313
G1 X126 Y178.67 E17.54374
G1 X125.22 Y179.159 E17.57436
G1 X124.4 Y179.578 E17.60499
G1 X123.547 Y179.924 E17.6356
G1 X122.667 Y180.195 E17.66623
G1 X121.767 Y180.388 E17.69684
G1 X120.853 Y180.503 E17.72748
G1 X120.288 Y180.534 E17.7463
G1 X119.967 Y180.543 E17.75698
G1 X119.67 Y180.547 E17.76686
G1 X100.57 Y180.546 E18.40213
G1 X99.872 Y180.537 E18.42535
G1 X98.953 Y180.485 E18.45596
G1 X98.042 Y180.354 E18.48657
G1 X97.146 Y180.144 E18.51718
G1 X96.271 Y179.857 E18.54781
G1 X95.424 Y179.495 E18.57845
G1 X94.612 Y179.061 E18.60907
G1 X93.841 Y178.559 E18.63967
G1 X93.116 Y177.991 E18.6703
G1 X92.443 Y177.362 E18.70094
G1 X91.828 Y176.678 E18.73154
G1 X91.274 Y175.943 E18.76215
G1 X90.786 Y175.162 E18.79278
G1 X90.367 Y174.342 E18.82341
G1 X90.021 Y173.489 E18.85402
G1 X89.751 Y172.609 E18.88464
G1 X89.558 Y171.708 E18.91528
G1 X89.444 Y170.795 E18.94589
G1 X89.413 Y170.224 E18.96491
G1 X89.404 Y169.891 E18.97599
G1 X89.4 Y169.605 E18.9855
G1 X89.401 Y50.584 E22.94415
G1 X89.41 Y49.919 E22.96627
G1 X89.462 Y48.999 E22.99692
G1 X89.594 Y48.088 E23.02754
G1 X89.805 Y47.192 E23.05815
G1 X90.092 Y46.317 E23.08878
G1 X90.455 Y45.471 E23.1194
G0 F6000 X90.853 Y45.567
G1 F600 X91.286 Y44.775 E23.14942
G1 X91.788 Y44.024 E23.17947
G1 X92.355 Y43.32 E23.20953
G1 X92.981 Y42.67 E23.23955
G1 X93.662 Y42.077 E23.26958
G1 X94.394 Y41.547 E23.29964
G1 X95.169 Y41.084 E23.32967
G1 X95.982 Y40.691 E23.3597
G1 X96.827 Y40.371 E23.38975
G1 X97.696 Y40.128 E23.41977
G1 X98.584 Y39.962 E23.44981
G1 X99.723 Y39.866 E23.48783
G1 X100.044 Y39.857 E23.49851
G1 X100.33 Y39.853 E23.50802
G1 X119.293 Y39.853 E24.13874
G1 X120.137 Y39.864 E24.16681
G1 X121.039 Y39.917 E24.19686
G1 X121.932 Y40.049 E24.22689
G1 X122.81 Y40.26 E24.25692
G1 X123.666 Y40.548 E24.28696
G1 X124.493 Y40.91 E24.31698
G1 X125.285 Y41.345 E24.34704
G1 X126.036 Y41.847 E24.37708
G1 X126.739 Y42.414 E24.40712
G1 X127.389 Y43.041 E24.43716
G1 X127.981 Y43.723 E24.4672
G1 X128.511 Y44.454 E24.49723
G1 X128.973 Y45.23 E24.52727
G1 X129.366 Y46.043 E24.5573
G1 X129.684 Y46.888 E24.58733
G1 X129.927 Y47.758 E24.61737
G1 X130.092 Y48.646 E24.64741
G1 X130.187 Y49.776 E24.68513
G1 X130.196 Y50.096 E24.69578
G1 X130.2 Y50.383 E24.70532
G1 X130.199 Y169.337 E28.66175
G1 X130.19 Y170.064 E28.68593
G1 X130.139 Y170.966 E28.71598
G1 X130.008 Y171.86 E28.74603
G1 X129.799 Y172.738 E28.77605
G1 X129.513 Y173.595 E28.8061
G1 X129.152 Y174.423 E28.83614
G1 X128.72 Y175.215 E28.86615
G1 X128.219 Y175.967 E28.8962
G1 X127.653 Y176.671 E28.92625
G1 X127.028 Y177.322 E28.95626
G1 X126.347 Y177.916 E28.98632
G1 X125.616 Y178.447 E29.01637
G1 X124.842 Y178.911 E29.04639
G1 X124.029 Y179.305 E29.07643
G1 X123.185 Y179.625 E29.10646
G1 X122.315 Y179.87 E29.13652
G1 X121.428 Y180.036 E29.16653
G1 X120.277 Y180.134 E29.20495
G1 X119.956 Y180.143 E29.21563
G1 X119.67 Y180.147 E29.22515
G1 X100.575 Y180.146 E29.86025
G1 X99.877 Y180.137 E29.88347
G1 X98.976 Y180.086 E29.91348
G1 X98.082 Y179.954 E29.94354
G1 X97.204 Y179.745 E29.97356
G1 X96.347 Y179.458 E30.00362
G1 X95.52 Y179.097 E30.03363
G1 X94.727 Y178.664 E30.06368
G1 X93.976 Y178.163 E30.09371
G1 X93.272 Y177.597 E30.12375
G1 X92.621 Y176.971 E30.15379
G1 X92.028 Y176.29 E30.18382
G1 X91.498 Y175.559 E30.21385
G1 X91.034 Y174.784 E30.2439
G1 X90.64 Y173.971 E30.27395
G1 X90.32 Y173.127 E30.30397
G1 X90.076 Y172.257 E30.33402
G1 X89.91 Y171.369 E30.36407
G1 X89.813 Y170.214 E30.40262
G1 X89.804 Y169.881 E30.4137
G1 X89.8 Y169.605 E30.42288
G1 X89.801 Y50.589 E34.38137
G1 X89.81 Y49.924 E34.40349
G1 X89.862 Y49.022 E34.43354
G1 X89.994 Y48.129 E34.46356
G1 X90.204 Y47.251 E34.49359
G1 X90.491 Y46.394 E34.52365
G1 X90.853 Y45.567 E34.55367
G1 F1500 E28.05367
;MESH:Arm.stl
G0 F6000 X113.435 Y81.714
G0 X112 Y81.714
G0 X112.17 Y83.641
;TYPE:WALL-INNER
G1 F1500 E34.55367
G1 F600 X114.782 Y83.641 E34.64055
G1 X114.783 Y76.795 E34.86825
G1 X114.783 Y76.596 E34.87487
G1 X114.584 Y76.596 E34.87915
G1 X112.17 Y76.596 E34.95944
G1 X112.17 Y83.641 E35.19376
G0 F6000 X112.57 Y83.241
;TYPE:WALL-OUTER
G1 F600 X114.382 Y83.241 E35.25402
G1 X114.383 Y76.996 E35.46173
G1 X112.57 Y76.996 E35.52203
G1 X112.57 Y83.241 E35.72974
G1 F1500 E29.22974
G0 F6000 X112.27 Y83.241
G0 X111.98 Y83.641
G0 X108.448 Y83.639
G0 X108.257 Y83.641
;TYPE:WALL-INNER
G1 F1500 E35.72974
G1 F600 X108.258 Y76.795 E35.95744
G1 X108.258 Y76.596 E35.96406
G1 X108.059 Y76.596 E35.96834
G1 X105.645 Y76.596 E36.04863
G1 X105.644 Y83.442 E36.27633
G1 X105.644 Y83.641 E36.28295
G1 X105.843 Y83.641 E36.28723
G1 X108.257 Y83.641 E36.36752
G0 F6000 X107.857 Y83.241
;TYPE:WALL-OUTER
G1 F600 X107.858 Y76.996 E36.57523
G1 X106.045 Y76.996 E36.63553
G1 X106.044 Y83.241 E36.84324
G1 X107.857 Y83.241 E36.90354
G1 F1500 E30.40354
G0 F6000 X107.857 Y83.541
G0 X105.816 Y83.469
G0 X105.474 Y81.714
G0 X106.91 Y81.714
G0 X120.665 Y83.837
G0 X119.19 Y83.837
G0 X119.4 Y169.347
;TYPE:WALL-INNER
G1 F1500 E36.90354
G1 F600 X100.6 Y169.347 E37.52883
G1 X100.6 Y50.653 E41.47661
G1 X119.4 Y50.653 E42.1019
G1 X119.4 Y169.347 E46.04968
G0 F6000 X119.8 Y169.747
;TYPE:WALL-OUTER
G1 F600 X100.2 Y169.747 E46.70158
G1 X100.2 Y50.253 E50.67597
G1 X119.8 Y50.253 E51.32787
G1 X119.8 Y169.747 E55.30225
G0 F6000 X119.53 Y169.477
G0 X119.29 Y168.957
G0 X119.01 Y168.957
;TYPE:SKIN
G1 F600 X100.99 Y168.957 E55.9016
G1 X100.99 Y51.043 E59.82344
G1 X119.01 Y51.043 E60.42278
G1 X119.01 Y168.957 E64.34462
G1 F1500 E57.84462
G0 F6000 X119.29 Y168.957
G0 X119.19 Y83.751
G0 X120.665 Y83.751
G0 X113.529 Y82.388
G0 X114.973 Y83.749
G0 X115.172 Y84.031
G1 F1500 E64.34462
G1 F600 X115.173 Y76.206 E64.60488
G1 X111.78 Y76.206 E64.71773
G1 X111.78 Y84.031 E64.97799
G1 X115.172 Y84.031 E65.09081
G1 F1500 E58.59081
G0 F6000 X114.922 Y83.751
G0 X111.98 Y83.751
G0 X108.448 Y83.749
G0 X108.647 Y84.031
G1 F1500 E65.09081
G1 F600 X108.648 Y76.206 E65.35107
G1 X105.255 Y76.206 E65.46392
G1 X105.254 Y84.031 E65.72418
G1 X108.647 Y84.031 E65.83703
G1 F1500 E59.33703
G0 F6000 X108.397 Y83.751
G0 X105.816 Y83.469
G0 X105.474 Y81.714
G0 X106.91 Y81.714
G0 X113.357 Y79.223
G0 X113.423 Y77.849
G0 X113.594 Y79.131
G0 X120.665 Y76.4
G0 X119.19 Y76.4
G0 X119.29 Y51.533
G0 X118.849 Y51.533
G1 F1500 E65.83703
G1 F600 X118.519 Y51.203 E65.85256
G0 F6000 X117.953 Y51.203
G1 F600 X118.849 Y52.098 E65.89468
G0 F6000 X118.849 Y52.664
G1 F600 X117.388 Y51.203 E65.9634
G0 F6000 X116.822 Y51.203
G1 F600 X118.849 Y53.23 E66.05874
G0 F6000 X118.849 Y53.795
G1 F600 X116.256 Y51.203 E66.18069
G0 F6000 X115.691 Y51.203
G1 F600 X118.849 Y54.361 E66.32923
G0 F6000 X118.849 Y54.927
G1 F600 X115.125 Y51.203 E66.50439
G0 F6000 X114.559 Y51.203
G1 F600 X118.849 Y55.493 E66.70618
G0 F6000 X118.849 Y56.058
G1 F600 X113.994 Y51.203 E66.93455
G0 F6000 X113.428 Y51.203
G1 F600 X118.849 Y56.624 E67.18953
G0 F6000 X118.849 Y57.19
G1 F600 X112.862 Y51.203 E67.47114
G0 F6000 X112.297 Y51.203
G1 F600 X118.849 Y57.755 E67.77933
G0 F6000 X118.849 Y58.321
G1 F600 X111.731 Y51.203 E68.11414
G0 F6000 X111.165 Y51.203
G1 F600 X118.849 Y58.887 E68.47557
G0 F6000 X118.849 Y59.452
G1 F600 X110.599 Y51.203 E68.8636
G0 F6000 X110.034 Y51.203
G1 F600 X118.849 Y60.018 E69.27823
G0 F6000 X118.849 Y60.584
G1 F600 X109.468 Y51.203 E69.71949
G0 F6000 X108.902 Y51.203
G1 F600 X118.849 Y61.149 E70.18734
G0 F6000 X118.849 Y61.715
G1 F600 X108.337 Y51.203 E70.68179
G0 F6000 X107.771 Y51.203
G1 F600 X118.849 Y62.281 E71.20287
G0 F6000 X118.849 Y62.846
G1 F600 X107.205 Y51.203 E71.75054
G0 F6000 X106.64 Y51.203
G1 F600 X118.849 Y63.412 E72.32481
G0 F6000 X118.849 Y63.978
G1 F600 X106.074 Y51.203 E72.92571
G0 F6000 X105.508 Y51.203
G1 F600 X118.849 Y64.543 E73.55321
G0 F6000 X118.849 Y65.109
G1 F600 X104.943 Y51.203 E74.2073
G0 F6000 X104.377 Y51.203
G1 F600 X118.849 Y65.675 E74.88802
G0 F6000 X118.849 Y66.241
G1 F600 X103.811 Y51.203 E75.59536
G0 F6000 X103.246 Y51.203
G1 F600 X118.849 Y66.806 E76.32928
G0 F6000 X118.849 Y67.372
G1 F600 X102.68 Y51.203 E77.08982
G0 F6000 X102.114 Y51.203
G1 F600 X118.849 Y67.938 E77.87698
G0 F6000 X118.849 Y68.503
G1 F600 X101.549 Y51.203 E78.69072
G0 F6000 X101.148 Y51.368
G1 F600 X118.849 Y69.069 E79.52332
G0 F6000 X118.849 Y69.635
G1 F600 X101.148 Y51.934 E80.35592
G0 F6000 X101.148 Y52.499
G1 F600 X118.849 Y70.2 E81.18853
G0 F6000 X118.849 Y70.766
G1 F600 X101.148 Y53.065 E82.02113
G0 F6000 X101.148 Y53.631
G1 F600 X118.849 Y71.332 E82.85373
G0 F6000 X118.849 Y71.897
G1 F600 X101.148 Y54.196 E83.68633
G0 F6000 X101.148 Y54.762
G1 F600 X118.849 Y72.463 E84.51893
G0 F6000 X118.849 Y73.029
G1 F600 X101.148 Y55.328 E85.35153
G0 F6000 X101.148 Y55.893
G1 F600 X118.849 Y73.594 E86.18413
G0 F6000 X118.849 Y74.16
G1 F600 X101.148 Y56.459 E87.01673
G0 F6000 X101.148 Y57.025
G1 F600 X118.849 Y74.726 E87.84933
G0 F6000 X118.849 Y75.292
G1 F600 X101.148 Y57.591 E88.68193
G0 F6000 X101.148 Y58.156
G1 F600 X118.849 Y75.857 E89.51453
G0 F6000 X118.849 Y76.423
G1 F600 X101.148 Y58.722 E90.34713
G0 F6000 X101.148 Y59.288
G1 F600 X118.849 Y76.989 E91.17973
G0 F6000 X118.849 Y77.554
G1 F600 X101.148 Y59.853 E92.01234
G0 F6000 X101.148 Y60.419
G1 F600 X118.849 Y78.12 E92.84494
G0 F6000 X118.849 Y78.686
G1 F600 X101.148 Y60.985 E93.67754
G0 F6000 X101.148 Y61.55
G1 F600 X118.849 Y79.251 E94.51014
G0 F6000 X118.849 Y79.817
G1 F600 X115.331 Y76.299 E94.67561
G0 F6000 X115.078 Y76.045
G1 F600 X101.148 Y62.116 E95.33081
G0 F6000 X101.148 Y62.682
G1 F600 X114.512 Y76.045 E95.95939
G0 F6000 X113.946 Y76.045
G1 F600 X101.148 Y63.247 E96.56137
G0 F6000 X101.148 Y63.813
G1 F600 X113.381 Y76.045 E97.13675
G0 F6000 X112.815 Y76.045
G1 F600 X101.148 Y64.379 E97.68551
G0 F6000 X101.148 Y64.944
G1 F600 X112.249 Y76.045 E98.20766
G0 F6000 X111.683 Y76.045
G1 F600 X101.148 Y65.51 E98.7032
G0 F6000 X101.148 Y66.076
G1 F600 X111.619 Y76.547 E99.19572
G0 F6000 X111.619 Y77.112
G1 F600 X101.148 Y66.641 E99.68825
G0 F6000 X101.148 Y67.207
G1 F600 X111.619 Y77.678 E100.18077
G0 F6000 X111.619 Y78.244
G1 F600 X101.148 Y67.773 E100.67329
G0 F6000 X101.148 Y68.339
G1 F600 X111.619 Y78.809 E101.16579
G0 F6000 X111.619 Y79.375
G1 F600 X108.806 Y76.562 E101.29811
G0 F6000 X108.806 Y77.128
G1 F600 X111.619 Y79.941 E101.43042
G0 F6000 X111.619 Y80.506
G1 F600 X108.806 Y77.694 E101.56271
G0 F6000 X108.806 Y78.259
G1 F600 X111.619 Y81.072 E101.69503
G0 F6000 X111.619 Y81.638
G1 F600 X108.806 Y78.825 E101.82734
G0 F6000 X108.806 Y79.391
G1 F600 X111.619 Y82.203 E101.95964
G0 F6000 X111.619 Y82.769
G1 F600 X108.806 Y79.956 E102.09195
G0 F6000 X108.806 Y80.522
