;FLAVOR:Marlin
;TIME:10411
;Filament used: 4.05703m
;Layer height: 0.2
;MINX:84.25
;MINY:14
;MINZ:0.2
;MAXX:135.75
;MAXY:206
;MAXZ:2.6
;Generated with Cura_SteamEngine 4.8.0
M140 S60
M105
M190 S60
M104 S200
M105
M109 S200
M82 ;absolute extrusion mode
; Script based on an original created by tjjfvi (https://github.com/tjjfvi)
; An up-to-date version of the tjjfvi's original script can be found
; here:  https://csi.t6.fyi/
; Note - This script will only work in Cura V4.2 and above!
; --- Global Settings
; layer_height = 0.2
; smooth_spiralized_contours = True
; magic_mesh_surface_mode = normal
; machine_extruder_count = 1
; --- Single Extruder Settings
; speed_z_hop = 5
; retraction_amount = 6.5
; retraction_hop = 0.2
; retraction_hop_enabled = False
; retraction_enable = True
; retraction_speed = 25
; retraction_retract_speed = 25
; retraction_prime_speed = 25
; speed_travel = 150.0
; Ender 3 Custom Start G-code
G92 E0 ; Reset Extruder
G28 ; Home all axes
G1 Z2.0 F3000 ; Move Z Axis up little to prevent scratching of Heat Bed
G1 X0.1 Y20 Z0.3 F5000.0 ; Move to start position
G1 X0.1 Y200.0 Z0.3 F1500.0 E15 ; Draw the first line
G1 X0.4 Y200.0 Z0.3 F5000.0 ; Move to side a little
G1 X0.4 Y20 Z0.3 F1500.0 E30 ; Draw the second line
G92 E0 ; Reset Extruder
G1 Z2.0 F3000 ; Move Z Axis up little to prevent scratching of Heat Bed
G1 X5 Y20 Z0.3 F5000.0 ; Move over to prevent blob squish
G92 E0
G92 E0
G1 F1500 E-6.5
;LAYER_COUNT:13
;LAYER:0
M107
G0 F6000 X84.656 Y22.081 Z0.2
;TYPE:SKIRT
G1 F1500 E0
G1 F600 X84.944 Y21.189 E0.03118
G1 X85.307 Y20.324 E0.06238
G1 X85.742 Y19.493 E0.09357
G1 X86.246 Y18.703 E0.12474
G1 X86.816 Y17.958 E0.15594
G1 X87.448 Y17.264 E0.18716
G1 X88.136 Y16.627 E0.21835
G1 X88.876 Y16.051 E0.24953
G1 X89.662 Y15.539 E0.28073
G1 X90.489 Y15.097 E0.31192
G1 X91.351 Y14.727 E0.34312
G1 X92.241 Y14.431 E0.37432
G1 X93.153 Y14.213 E0.40551
G1 X94.08 Y14.072 E0.43669
G1 X94.951 Y14.013 E0.46573
G1 X95.272 Y14.004 E0.47641
G1 X95.58 Y14 E0.48665
G1 X124.043 Y14 E1.43334
G1 X124.899 Y14.011 E1.46181
G1 X125.835 Y14.065 E1.49299
G1 X126.763 Y14.197 E1.52417
G1 X127.677 Y14.409 E1.55538
G1 X128.569 Y14.698 E1.58656
G1 X129.434 Y15.061 E1.61776
G1 X130.264 Y15.497 E1.64895
G1 X131.055 Y16.002 E1.68016
G1 X131.799 Y16.573 E1.71135
G1 X132.492 Y17.205 E1.74255
G1 X133.129 Y17.893 E1.77373
G1 X133.704 Y18.634 E1.80493
G1 X134.215 Y19.42 E1.83611
G1 X134.657 Y20.248 E1.86733
G1 X135.026 Y21.11 E1.89851
G1 X135.321 Y22 E1.9297
G1 X135.539 Y22.912 E1.96089
G1 X135.679 Y23.84 E1.9921
G1 X135.737 Y24.701 E2.0208
G1 X135.746 Y25.021 E2.03145
G1 X135.75 Y25.33 E2.04173
G1 X135.749 Y194.4 E7.66502
G1 X135.74 Y195.127 E7.6892
G1 X135.689 Y196.064 E7.72041
G1 X135.557 Y196.992 E7.75159
G1 X135.348 Y197.906 E7.78277
G1 X135.061 Y198.799 E7.81397
G1 X134.699 Y199.665 E7.84519
G1 X134.265 Y200.496 E7.87637
G1 X133.761 Y201.287 E7.90757
G1 X133.192 Y202.032 E7.93875
G1 X132.561 Y202.727 E7.96997
G1 X131.874 Y203.365 E8.00115
G1 X131.135 Y203.942 E8.03234
G1 X130.349 Y204.454 E8.06354
G1 X129.523 Y204.897 E8.09471
G1 X128.661 Y205.269 E8.12594
G1 X127.772 Y205.565 E8.1571
G1 X126.86 Y205.785 E8.1883
G1 X125.933 Y205.926 E8.21949
G1 X125.049 Y205.987 E8.24896
G1 X124.728 Y205.996 E8.25964
G1 X124.42 Y206 E8.26989
G1 X95.815 Y205.999 E9.22129
G1 X95.117 Y205.99 E9.24451
G1 X94.181 Y205.938 E9.27569
G1 X93.252 Y205.806 E9.3069
G1 X92.338 Y205.596 E9.33809
G1 X91.445 Y205.309 E9.36929
G1 X90.58 Y204.946 E9.40049
G1 X89.749 Y204.512 E9.43167
G1 X88.958 Y204.008 E9.46287
G1 X88.213 Y203.438 E9.49407
G1 X87.519 Y202.807 E9.52526
G1 X86.882 Y202.12 E9.55642
G1 X86.305 Y201.38 E9.58763
G1 X85.793 Y200.594 E9.61883
G1 X85.35 Y199.767 E9.65004
G1 X84.979 Y198.906 E9.68122
G1 X84.683 Y198.016 E9.71242
G1 X84.464 Y197.104 E9.74361
G1 X84.323 Y196.177 E9.7748
G1 X84.263 Y195.288 E9.80443
G1 X84.254 Y194.955 E9.81551
G1 X84.25 Y194.658 E9.82539
G1 X84.251 Y25.525 E15.45078
G1 X84.26 Y24.86 E15.4729
G1 X84.313 Y23.924 E15.50408
G1 X84.445 Y22.995 E15.53529
G1 X84.656 Y22.081 E15.56649
G0 F6000 X85.055 Y22.139
G1 F600 X85.342 Y21.264 E15.59712
G1 X85.705 Y20.418 E15.62774
G1 X86.139 Y19.606 E15.65836
G1 X86.642 Y18.835 E15.68898
G1 X87.211 Y18.111 E15.7196
G1 X87.839 Y17.439 E15.7502
G1 X88.524 Y16.823 E15.78084
G1 X89.26 Y16.27 E15.81146
G1 X90.041 Y15.782 E15.84209
G1 X90.861 Y15.364 E15.8727
G1 X91.715 Y15.019 E15.90333
G1 X92.595 Y14.749 E15.93395
G1 X93.495 Y14.557 E15.96456
G1 X94.409 Y14.443 E15.99519
G1 X94.962 Y14.413 E16.01361
G1 X95.283 Y14.404 E16.02429
G1 X95.58 Y14.4 E16.03417
G1 X124.043 Y14.4 E16.98085
G1 X124.893 Y14.411 E17.00913
G1 X125.812 Y14.464 E17.03974
G1 X126.723 Y14.597 E17.07037
G1 X127.619 Y14.808 E17.10098
G1 X128.493 Y15.096 E17.13159
G1 X129.34 Y15.459 E17.16224
G1 X130.151 Y15.894 E17.19285
G1 X130.921 Y16.398 E17.22346
G1 X131.645 Y16.967 E17.25408
G1 X132.317 Y17.597 E17.28472
G1 X132.932 Y18.282 E17.31534
G1 X133.485 Y19.018 E17.34596
G1 X133.972 Y19.799 E17.37657
G1 X134.389 Y20.62 E17.4072
G1 X134.734 Y21.474 E17.43783
G1 X135.003 Y22.354 E17.46844
G1 X135.195 Y23.255 E17.49908
G1 X135.308 Y24.168 E17.52968
G1 X135.337 Y24.712 E17.5478
G1 X135.346 Y25.032 E17.55844
G1 X135.35 Y25.33 E17.56836
G1 X135.349 Y194.395 E23.19148
G1 X135.34 Y195.122 E23.21566
G1 X135.289 Y196.041 E23.24627
G1 X135.158 Y196.953 E23.27692
G1 X134.948 Y197.849 E23.30753
G1 X134.662 Y198.724 E23.33815
G1 X134.301 Y199.571 E23.36877
G1 X133.867 Y200.383 E23.39939
G1 X133.365 Y201.155 E23.43002
G1 X132.797 Y201.88 E23.46065
G1 X132.169 Y202.553 E23.49127
G1 X131.485 Y203.169 E23.52188
G1 X130.75 Y203.723 E23.5525
G1 X129.97 Y204.212 E23.58312
G1 X129.15 Y204.631 E23.61374
G1 X128.297 Y204.977 E23.64436
G1 X127.417 Y205.248 E23.67499
G1 X126.517 Y205.441 E23.7056
G1 X125.603 Y205.556 E23.73624
G1 X125.038 Y205.587 E23.75506
G1 X124.717 Y205.596 E23.76574
G1 X124.42 Y205.6 E23.77562
G1 X95.82 Y205.599 E24.72686
G1 X95.122 Y205.59 E24.75008
G1 X94.203 Y205.538 E24.78069
G1 X93.292 Y205.407 E24.8113
G1 X92.396 Y205.197 E24.84191
G1 X91.521 Y204.91 E24.87254
G1 X90.674 Y204.548 E24.90318
G1 X89.862 Y204.114 E24.9338
G1 X89.091 Y203.612 E24.9644
G1 X88.366 Y203.044 E24.99503
G1 X87.693 Y202.415 E25.02567
G1 X87.078 Y201.731 E25.05626
G1 X86.524 Y200.996 E25.08688
G1 X86.036 Y200.215 E25.11751
G1 X85.617 Y199.395 E25.14814
G1 X85.271 Y198.542 E25.17875
G1 X85.001 Y197.662 E25.20937
G1 X84.808 Y196.761 E25.24001
G1 X84.694 Y195.848 E25.27062
G1 X84.663 Y195.277 E25.28964
G1 X84.654 Y194.944 E25.30072
G1 X84.65 Y194.658 E25.31023
G1 X84.651 Y25.531 E30.93542
G1 X84.66 Y24.866 E30.95754
G1 X84.712 Y23.946 E30.98818
G1 X84.844 Y23.035 E31.0188
G1 X85.055 Y22.139 E31.04942
G0 F6000 X85.454 Y22.198
G1 F600 X85.741 Y21.341 E31.07948
G1 X86.103 Y20.514 E31.1095
G1 X86.536 Y19.722 E31.13952
G1 X87.038 Y18.971 E31.16957
G1 X87.605 Y18.267 E31.19963
G1 X88.231 Y17.617 E31.22965
G1 X88.912 Y17.024 E31.25968
G1 X89.644 Y16.494 E31.28974
G1 X90.419 Y16.031 E31.31977
G1 X91.232 Y15.638 E31.3498
G1 X92.077 Y15.318 E31.37985
G1 X92.946 Y15.075 E31.40987
G1 X93.834 Y14.909 E31.43991
G1 X94.973 Y14.813 E31.47793
G1 X95.294 Y14.804 E31.48861
G1 X95.58 Y14.8 E31.49812
G1 X124.043 Y14.8 E32.44481
G1 X124.887 Y14.811 E32.47288
G1 X125.789 Y14.864 E32.50293
G1 X126.682 Y14.996 E32.53296
G1 X127.56 Y15.207 E32.56299
G1 X128.416 Y15.495 E32.59303
G1 X129.243 Y15.857 E32.62306
G1 X130.035 Y16.292 E32.65311
G1 X130.786 Y16.794 E32.68315
G1 X131.489 Y17.361 E32.71319
G1 X132.139 Y17.988 E32.74323
G1 X132.731 Y18.67 E32.77327
G1 X133.261 Y19.401 E32.8033
G1 X133.723 Y20.177 E32.83334
G1 X134.116 Y20.99 E32.86337
G1 X134.434 Y21.835 E32.8934
G1 X134.677 Y22.705 E32.92345
G1 X134.842 Y23.593 E32.95349
G1 X134.937 Y24.723 E32.9912
G1 X134.946 Y25.043 E33.00185
G1 X134.95 Y25.33 E33.0114
G1 X134.949 Y194.39 E38.63435
G1 X134.94 Y195.117 E38.65854
G1 X134.889 Y196.019 E38.68859
G1 X134.758 Y196.913 E38.71864
G1 X134.549 Y197.791 E38.74866
G1 X134.263 Y198.648 E38.7787
G1 X133.902 Y199.476 E38.80875
G1 X133.47 Y200.268 E38.83875
G1 X132.969 Y201.02 E38.86881
G1 X132.403 Y201.724 E38.89885
G1 X131.778 Y202.375 E38.92887
G1 X131.097 Y202.969 E38.95892
G1 X130.366 Y203.5 E38.98897
G1 X129.592 Y203.964 E39.01899
G1 X128.779 Y204.358 E39.04904
G1 X127.935 Y204.678 E39.07906
G1 X127.065 Y204.923 E39.10912
G1 X126.178 Y205.089 E39.13914
G1 X125.027 Y205.187 E39.17756
G1 X124.706 Y205.196 E39.18824
G1 X124.42 Y205.2 E39.19775
G1 X95.825 Y205.199 E40.14882
G1 X95.127 Y205.19 E40.17204
G1 X94.226 Y205.139 E40.20206
G1 X93.332 Y205.007 E40.23211
G1 X92.454 Y204.798 E40.26213
G1 X91.597 Y204.511 E40.29219
G1 X90.77 Y204.15 E40.3222
G1 X89.977 Y203.717 E40.35226
G1 X89.226 Y203.216 E40.38228
G1 X88.522 Y202.65 E40.41233
G1 X87.871 Y202.024 E40.44236
G1 X87.278 Y201.343 E40.4724
G1 X86.748 Y200.612 E40.50243
G1 X86.284 Y199.837 E40.53247
G1 X85.89 Y199.024 E40.56252
G1 X85.57 Y198.18 E40.59254
G1 X85.326 Y197.31 E40.6226
G1 X85.16 Y196.422 E40.65264
G1 X85.063 Y195.267 E40.69119
G1 X85.054 Y194.934 E40.70227
G1 X85.05 Y194.658 E40.71145
G1 X85.051 Y25.536 E46.33647
G1 X85.06 Y24.871 E46.35859
G1 X85.112 Y23.969 E46.38864
G1 X85.244 Y23.076 E46.41867
G1 X85.454 Y22.198 E46.44869
G1 F1500 E39.94869
;MESH:CrossJoint.stl
G0 F6000 X101.693 Y30
G0 X100.231 Y30
G0 X101.253 Y31.372
G0 X101.61 Y31.61
G0 X102.625 Y32.203
;TYPE:WALL-INNER
G1 F1500 E46.44869
G1 F600 X103.056 Y32.16 E46.4631
G1 X103.461 Y32.036 E46.47719
G1 X103.566 Y31.983 E46.4811
G1 X103.85 Y31.831 E46.49181
G1 X104.182 Y31.557 E46.50613
G1 X104.456 Y31.225 E46.52045
G1 X104.66 Y30.843 E46.53485
G1 X104.785 Y30.429 E46.54924
G1 X104.828 Y30 E46.56358
G1 X104.785 Y29.571 E46.57792
G1 X104.66 Y29.157 E46.5923
G1 X104.456 Y28.775 E46.6067
G1 X104.182 Y28.443 E46.62102
G1 X103.85 Y28.169 E46.63534
G1 X103.468 Y27.965 E46.64974
G1 X103.054 Y27.84 E46.66413
G1 X102.625 Y27.797 E46.67847
G1 X102.196 Y27.84 E46.69281
G1 X101.782 Y27.965 E46.70719
G1 X101.4 Y28.169 E46.72159
G1 X101.068 Y28.443 E46.73591
G1 X100.794 Y28.775 E46.75023
G1 X100.59 Y29.157 E46.76463
G1 X100.465 Y29.571 E46.77901
G1 X100.422 Y30 E46.79335
G1 X100.465 Y30.429 E46.8077
G1 X100.59 Y30.843 E46.82208
G1 X100.794 Y31.225 E46.83648
G1 X101.068 Y31.557 E46.8508
G1 X101.4 Y31.831 E46.86512
G1 X101.782 Y32.035 E46.87952
G1 X102.196 Y32.16 E46.8939
G1 X102.625 Y32.203 E46.90824
G0 F6000 X102.625 Y31.801
;TYPE:WALL-OUTER
G1 F600 X102.977 Y31.766 E46.92001
G1 X103.312 Y31.663 E46.93167
G1 X103.382 Y31.628 E46.93427
G1 X103.626 Y31.497 E46.94348
G1 X103.898 Y31.273 E46.9552
G1 X104.122 Y31.001 E46.96692
G1 X104.289 Y30.689 E46.97869
G1 X104.391 Y30.351 E46.99043
G1 X104.426 Y30 E47.00217
G1 X104.391 Y29.649 E47.0139
G1 X104.289 Y29.311 E47.02564
G1 X104.122 Y28.999 E47.03741
G1 X103.898 Y28.727 E47.04913
G1 X103.626 Y28.503 E47.06085
G1 X103.314 Y28.336 E47.07262
G1 X102.976 Y28.234 E47.08436
G1 X102.625 Y28.199 E47.09609
G1 X102.274 Y28.234 E47.10783
G1 X101.936 Y28.336 E47.11957
G1 X101.624 Y28.503 E47.13134
G1 X101.352 Y28.727 E47.14306
G1 X101.128 Y28.999 E47.15478
G1 X100.961 Y29.311 E47.16655
G1 X100.859 Y29.649 E47.17829
G1 X100.824 Y30 E47.19002
G1 X100.859 Y30.351 E47.20176
G1 X100.961 Y30.689 E47.2135
G1 X101.128 Y31.001 E47.22527
G1 X101.352 Y31.273 E47.23699
G1 X101.624 Y31.497 E47.24871
G1 X101.936 Y31.664 E47.26048
G1 X102.274 Y31.766 E47.27222
G1 X102.625 Y31.801 E47.28395
G0 F6000 X102.625 Y32.241
G1 F1500 E40.78395
G0 F6000 X104.317 Y31.692
G0 X103.284 Y30.659
G0 X116.716 Y30.659
G0 X115.683 Y31.692
G0 X117.375 Y32.203
;TYPE:WALL-INNER
G1 F1500 E47.28395
G1 F600 X117.804 Y32.16 E47.29829
G1 X118.218 Y32.035 E47.31268
G1 X118.6 Y31.831 E47.32708
G1 X118.932 Y31.557 E47.3414
G1 X119.206 Y31.225 E47.35572
G1 X119.41 Y30.843 E47.37012
G1 X119.535 Y30.429 E47.3845
G1 X119.578 Y30 E47.39884
G1 X119.535 Y29.571 E47.41318
G1 X119.41 Y29.157 E47.42757
G1 X119.206 Y28.775 E47.44197
G1 X118.932 Y28.443 E47.45629
G1 X118.6 Y28.169 E47.4706
G1 X118.218 Y27.965 E47.48501
G1 X117.804 Y27.84 E47.49939
G1 X117.375 Y27.797 E47.51373
G1 X116.946 Y27.84 E47.52807
G1 X116.532 Y27.965 E47.54246
G1 X116.15 Y28.169 E47.55686
G1 X115.818 Y28.443 E47.57118
G1 X115.544 Y28.775 E47.58549
G1 X115.34 Y29.157 E47.5999
G1 X115.215 Y29.571 E47.61428
G1 X115.172 Y30 E47.62862
G1 X115.215 Y30.429 E47.64296
G1 X115.34 Y30.843 E47.65735
G1 X115.544 Y31.225 E47.67175
G1 X115.818 Y31.557 E47.68607
G1 X116.151 Y31.831 E47.70041
G1 X116.536 Y32.037 E47.71493
G1 X116.946 Y32.16 E47.72917
G1 X117.375 Y32.203 E47.74351
G0 F6000 X117.375 Y31.801
;TYPE:WALL-OUTER
G1 F600 X117.726 Y31.766 E47.75524
G1 X118.064 Y31.664 E47.76698
G1 X118.376 Y31.497 E47.77875
G1 X118.648 Y31.273 E47.79047
G1 X118.872 Y31.001 E47.80219
G1 X119.039 Y30.689 E47.81396
G1 X119.141 Y30.351 E47.82571
G1 X119.176 Y30 E47.83744
G1 X119.141 Y29.649 E47.84917
G1 X119.039 Y29.311 E47.86091
G1 X118.872 Y28.999 E47.87268
G1 X118.648 Y28.727 E47.8844
G1 X118.376 Y28.503 E47.89612
G1 X118.064 Y28.336 E47.90789
G1 X117.726 Y28.234 E47.91964
G1 X117.375 Y28.199 E47.93137
G1 X117.024 Y28.234 E47.9431
G1 X116.686 Y28.336 E47.95484
G1 X116.374 Y28.503 E47.96661
G1 X116.102 Y28.727 E47.97833
G1 X115.878 Y28.999 E47.99005
G1 X115.711 Y29.311 E48.00182
G1 X115.609 Y29.649 E48.01357
G1 X115.574 Y30 E48.0253
G1 X115.609 Y30.351 E48.03703
G1 X115.711 Y30.689 E48.04877
G1 X115.878 Y31.001 E48.06054
G1 X116.102 Y31.273 E48.07226
G1 X116.374 Y31.497 E48.08398
G1 X116.689 Y31.665 E48.09586
G1 X117.024 Y31.766 E48.10749
G1 X117.375 Y31.801 E48.11923
G0 F6000 X117.375 Y32.241
G1 F1500 E41.61923
G0 F6000 X116.908 Y32.348
G0 X117.191 Y30.914
G0 X110.066 Y88.698
G0 X110.368 Y87.245
G0 X111.123 Y88.276
G0 X111.321 Y88.762
G0 X111.317 Y89.287
G0 X111.202 Y89.558
G0 X110.662 Y90.45
;TYPE:WALL-INNER
G1 F1500 E48.11923
G1 F600 X110.885 Y90.36 E48.12722
G1 X111.151 Y90.097 E48.13967
G1 X111.332 Y89.918 E48.14813
G1 X111.577 Y89.341 E48.16898
G1 X111.583 Y88.711 E48.18994
G1 X111.346 Y88.129 E48.21084
G1 X110.907 Y87.681 E48.2317
G1 X110.328 Y87.436 E48.25261
G1 X109.699 Y87.43 E48.27353
G1 X109.115 Y87.667 E48.29449
G1 X108.668 Y88.109 E48.3154
G1 X108.423 Y88.685 E48.33622
G1 X108.417 Y89.314 E48.35714
G1 X108.654 Y89.898 E48.3781
G1 X108.848 Y90.096 E48.38732
G1 X109.094 Y90.346 E48.39899
G1 X109.341 Y90.45 E48.4079
G1 X109.094 Y90.45 E48.40883
G1 X108.743 Y90.45 E48.41653
G1 X102.682 Y90.45 E48.61812
G1 X102.682 Y115.083 E49.43741
G1 X108.804 Y115.083 E49.64103
G1 X109.115 Y115.083 E49.65138
G1 X109.469 Y115.083 E49.66315
G1 X109.115 Y115.226 E49.66597
G1 X108.894 Y115.444 E49.67323
G1 X108.668 Y115.668 E49.68381
G1 X108.423 Y116.245 E49.70466
G1 X108.417 Y116.875 E49.72562
G1 X108.654 Y117.457 E49.74652
G1 X109.093 Y117.905 E49.76738
G1 X109.672 Y118.15 E49.78829
G1 X110.301 Y118.156 E49.80921
G1 X110.885 Y117.919 E49.83018
G1 X111.332 Y117.477 E49.85108
G1 X111.577 Y116.901 E49.8719
G1 X111.583 Y116.272 E49.89282
G1 X111.346 Y115.688 E49.91379
G1 X111.108 Y115.445 E49.9251
G1 X110.906 Y115.24 E49.93467
G1 X110.533 Y115.083 E49.94813
G1 X110.906 Y115.083 E49.95036
G1 X111.194 Y115.083 E49.95726
G1 X117.445 Y115.083 E50.16517
G1 X117.445 Y90.45 E50.98447
G1 X111.26 Y90.45 E51.19018
G1 X110.885 Y90.45 E51.1982
G1 X110.662 Y90.45 E51.19892
G0 F6000 X110.225 Y90.195
;TYPE:WALL-OUTER
G1 F600 X110.661 Y90.019 E51.21455
G1 X110.995 Y89.689 E51.23017
G1 X111.178 Y89.258 E51.24574
G1 X111.182 Y88.788 E51.26138
G1 X111.005 Y88.353 E51.277
G1 X110.677 Y88.018 E51.29259
G1 X110.245 Y87.835 E51.3082
G1 X109.775 Y87.831 E51.32383
G1 X109.339 Y88.008 E51.33948
G1 X109.005 Y88.338 E51.3551
G1 X108.822 Y88.768 E51.37064
G1 X108.818 Y89.238 E51.38627
G1 X108.995 Y89.674 E51.40192
G1 X109.323 Y90.009 E51.41752
G1 X109.756 Y90.191 E51.43314
G1 X110.225 Y90.195 E51.44874
G1 F1500 E44.94874
G0 F6000 X110.224 Y90.394
G0 X102.954 Y90.722
G0 X102.882 Y114.683
G0 X103.082 Y114.683
G1 F1500 E51.44874
G1 F600 X117.045 Y114.683 E51.91315
G1 X117.045 Y90.85 E52.70584
G1 X103.082 Y90.85 E53.17025
G1 X103.082 Y114.683 E53.96294
G1 F1500 E47.46294
