;FLAVOR:Marlin
;TIME:3862
;Filament used: 2.37601m
;Layer height: 0.2
;MINX:80.533
;MINY:85.452
;MINZ:0.2
;MAXX:139.467
;MAXY:134.549
;MAXZ:19.2
;Generated with Cura_SteamEngine 4.8.0
M140 S60
M105
M190 S60
M104 S200
M105
M109 S200
M82 ;absolute extrusion mode
; Script based on an original created by tjjfvi (https://github.com/tjjfvi)
; An up-to-date version of the tjjfvi's original script can be found
; here:  https://csi.t6.fyi/
; Note - This script will only work in Cura V4.2 and above!
; --- Global Settings
; layer_height = 0.2
; smooth_spiralized_contours = True
; magic_mesh_surface_mode = normal
; machine_extruder_count = 1
; --- Single Extruder Settings
; speed_z_hop = 5
; retraction_amount = 6.5
; retraction_hop = 0.2
; retraction_hop_enabled = False
; retraction_enable = True
; retraction_speed = 25
; retraction_retract_speed = 25
; retraction_prime_speed = 25
; speed_travel = 150.0
; Ender 3 Custom Start G-code
G92 E0 ; Reset Extruder
G28 ; Home all axes
G1 Z2.0 F3000 ; Move Z Axis up little to prevent scratching of Heat Bed
G1 X0.1 Y20 Z0.3 F5000.0 ; Move to start position
G1 X0.1 Y200.0 Z0.3 F1500.0 E15 ; Draw the first line
G1 X0.4 Y200.0 Z0.3 F5000.0 ; Move to side a little
G1 X0.4 Y20 Z0.3 F1500.0 E30 ; Draw the second line
G92 E0 ; Reset Extruder
G1 Z2.0 F3000 ; Move Z Axis up little to prevent scratching of Heat Bed
G1 X5 Y20 Z0.3 F5000.0 ; Move over to prevent blob squish
G92 E0
G92 E0
G1 F1500 E-6.5
;LAYER_COUNT:96
;LAYER:0
M107
G0 F6000 X83.73 Y88.716 Z0.2
;TYPE:SKIRT
G1 F1500 E0
G1 F1200 X84.419 Y88.079 E0.03121
G1 X85.158 Y87.503 E0.06237
G1 X85.945 Y86.992 E0.09358
G1 X86.772 Y86.549 E0.12479
G1 X87.633 Y86.179 E0.15596
G1 X88.523 Y85.883 E0.18715
G1 X89.435 Y85.665 E0.21834
G1 X90.363 Y85.524 E0.24956
G1 X91.234 Y85.465 E0.27859
G1 X91.555 Y85.456 E0.28928
G1 X91.863 Y85.452 E0.29952
G1 X108.188 Y85.452 E0.84249
G1 X110.399 Y85.461 E0.91603
G1 X111.413 Y85.453 E0.94976
G1 X127.918 Y85.454 E1.49872
G1 X128.616 Y85.464 E1.52193
G1 X129.552 Y85.518 E1.55312
G1 X130.48 Y85.65 E1.58429
G1 X131.394 Y85.862 E1.6155
G1 X132.286 Y86.151 E1.64669
G1 X133.151 Y86.514 E1.67789
G1 X133.981 Y86.95 E1.70907
G1 X134.772 Y87.455 E1.74028
G1 X135.516 Y88.026 E1.77148
G1 X136.209 Y88.658 E1.80267
G1 X136.846 Y89.346 E1.83386
G1 X137.421 Y90.087 E1.86505
G1 X137.932 Y90.873 E1.89623
G1 X138.374 Y91.701 E1.92745
G1 X138.743 Y92.563 E1.95864
G1 X139.038 Y93.453 E1.98982
G1 X139.256 Y94.365 E2.02101
G1 X139.396 Y95.293 E2.05223
G1 X139.454 Y96.154 E2.08093
G1 X139.463 Y96.474 E2.09158
G1 X139.467 Y96.783 E2.10185
G1 X139.466 Y122.949 E2.97214
G1 X139.457 Y123.676 E2.99632
G1 X139.406 Y124.613 E3.02753
G1 X139.274 Y125.541 E3.05871
G1 X139.065 Y126.455 E3.08989
G1 X138.778 Y127.348 E3.12109
G1 X138.416 Y128.214 E3.15231
G1 X137.982 Y129.045 E3.18349
G1 X137.478 Y129.836 E3.21468
G1 X136.909 Y130.581 E3.24586
G1 X136.278 Y131.276 E3.27709
G1 X135.591 Y131.914 E3.30827
G1 X134.852 Y132.491 E3.33945
G1 X134.066 Y133.003 E3.37065
G1 X133.24 Y133.446 E3.40183
G1 X132.378 Y133.818 E3.43305
G1 X131.489 Y134.114 E3.46422
G1 X130.577 Y134.334 E3.49542
G1 X129.65 Y134.475 E3.52661
G1 X128.766 Y134.536 E3.55608
G1 X128.445 Y134.545 E3.56676
G1 X128.136 Y134.549 E3.57704
G1 X111.757 Y134.548 E4.12181
G1 X109.677 Y134.541 E4.19099
G1 X108.622 Y134.549 E4.22608
G1 X92.098 Y134.548 E4.77567
G1 X91.4 Y134.539 E4.79889
G1 X90.464 Y134.487 E4.83007
G1 X89.535 Y134.355 E4.86127
G1 X88.621 Y134.145 E4.89247
G1 X87.728 Y133.858 E4.92366
G1 X86.863 Y133.495 E4.95486
G1 X86.032 Y133.061 E4.98605
G1 X85.241 Y132.557 E5.01724
G1 X84.496 Y131.987 E5.04844
G1 X83.802 Y131.356 E5.07964
G1 X83.165 Y130.669 E5.1108
G1 X82.588 Y129.929 E5.14201
G1 X82.076 Y129.143 E5.17321
G1 X81.633 Y128.316 E5.20441
G1 X81.262 Y127.455 E5.23559
G1 X80.966 Y126.565 E5.26679
G1 X80.747 Y125.653 E5.29799
G1 X80.606 Y124.726 E5.32917
G1 X80.546 Y123.837 E5.35881
G1 X80.537 Y123.504 E5.36989
G1 X80.533 Y123.207 E5.37977
G1 X80.534 Y96.978 E6.25215
G1 X80.543 Y96.312 E6.2743
G1 X80.596 Y95.376 E6.30548
G1 X80.728 Y94.447 E6.33669
G1 X80.939 Y93.534 E6.36786
G1 X81.227 Y92.641 E6.39907
G1 X81.589 Y91.776 E6.43025
G1 X82.025 Y90.945 E6.46147
G1 X82.529 Y90.155 E6.49263
G1 X83.099 Y89.41 E6.52383
G1 X83.73 Y88.716 E6.55503
G0 F6000 X84.122 Y88.891
G1 F1200 X84.807 Y88.275 E6.58567
G1 X85.543 Y87.722 E6.61629
G1 X86.324 Y87.234 E6.64692
G1 X87.144 Y86.816 E6.67753
G1 X87.998 Y86.471 E6.70817
G1 X88.878 Y86.201 E6.73878
G1 X89.778 Y86.009 E6.76939
G1 X90.692 Y85.895 E6.80003
G1 X91.245 Y85.865 E6.81845
G1 X91.566 Y85.856 E6.82913
G1 X91.863 Y85.852 E6.839
G1 X108.187 Y85.852 E7.38194
G1 X110.401 Y85.861 E7.45558
G1 X111.416 Y85.853 E7.48934
G1 X127.912 Y85.854 E8.038
G1 X128.61 Y85.864 E8.06122
G1 X129.529 Y85.917 E8.09184
G1 X130.44 Y86.05 E8.12246
G1 X131.336 Y86.261 E8.15307
G1 X132.21 Y86.549 E8.18368
G1 X133.057 Y86.912 E8.21433
G1 X133.868 Y87.347 E8.24494
G1 X134.638 Y87.851 E8.27555
G1 X135.362 Y88.42 E8.30617
G1 X136.034 Y89.05 E8.33681
G1 X136.649 Y89.735 E8.36743
G1 X137.202 Y90.471 E8.39805
G1 X137.689 Y91.252 E8.42866
G1 X138.106 Y92.073 E8.45929
G1 X138.451 Y92.927 E8.48992
G1 X138.72 Y93.807 E8.52053
G1 X138.912 Y94.708 E8.55117
G1 X139.025 Y95.621 E8.58177
G1 X139.054 Y96.165 E8.59989
G1 X139.063 Y96.485 E8.61053
G1 X139.067 Y96.783 E8.62045
G1 X139.066 Y122.944 E9.49056
G1 X139.057 Y123.671 E9.51475
G1 X139.006 Y124.59 E9.54536
G1 X138.875 Y125.502 E9.576
G1 X138.665 Y126.398 E9.60661
G1 X138.379 Y127.273 E9.63723
G1 X138.018 Y128.12 E9.66785
G1 X137.584 Y128.932 E9.69848
G1 X137.082 Y129.704 E9.72911
G1 X136.514 Y130.429 E9.75974
G1 X135.886 Y131.102 E9.79035
G1 X135.202 Y131.718 E9.82097
G1 X134.467 Y132.272 E9.85158
G1 X133.687 Y132.761 E9.8822
G1 X132.867 Y133.18 E9.91283
G1 X132.014 Y133.526 E9.94345
G1 X131.134 Y133.797 E9.97407
G1 X130.234 Y133.99 E10.00469
G1 X129.32 Y134.105 E10.03532
G1 X128.755 Y134.136 E10.05415
G1 X128.434 Y134.145 E10.06483
G1 X128.136 Y134.149 E10.07474
G1 X111.759 Y134.148 E10.61944
G1 X109.676 Y134.141 E10.68872
G1 X108.619 Y134.149 E10.72388
G1 X92.103 Y134.148 E11.2732
G1 X91.405 Y134.139 E11.29642
G1 X90.486 Y134.087 E11.32703
G1 X89.575 Y133.956 E11.35765
G1 X88.679 Y133.746 E11.38825
G1 X87.804 Y133.459 E11.41888
G1 X86.957 Y133.097 E11.44952
G1 X86.145 Y132.663 E11.48014
G1 X85.374 Y132.161 E11.51074
G1 X84.649 Y131.593 E11.54138
G1 X83.976 Y130.964 E11.57201
G1 X83.361 Y130.28 E11.60261
G1 X82.807 Y129.545 E11.63322
G1 X82.319 Y128.764 E11.66385
G1 X81.9 Y127.944 E11.69448
G1 X81.554 Y127.091 E11.72509
G1 X81.284 Y126.211 E11.75571
G1 X81.091 Y125.31 E11.78636
G1 X80.977 Y124.397 E11.81696
G1 X80.946 Y123.826 E11.83598
G1 X80.937 Y123.493 E11.84706
G1 X80.933 Y123.207 E11.85657
G1 X80.934 Y96.984 E12.72875
G1 X80.943 Y96.318 E12.7509
G1 X80.995 Y95.399 E12.78152
G1 X81.127 Y94.487 E12.81217
G1 X81.338 Y93.591 E12.84279
G1 X81.625 Y92.717 E12.87338
G1 X81.988 Y91.87 E12.90403
G1 X82.422 Y91.059 E12.93462
G1 X82.925 Y90.288 E12.96524
G1 X83.493 Y89.563 E12.99588
G1 X84.122 Y88.891 E13.02649
G0 F6000 X84.514 Y89.069
G1 F1200 X85.195 Y88.476 E13.05652
G1 X85.926 Y87.946 E13.08656
G1 X86.702 Y87.483 E13.11661
G1 X87.515 Y87.09 E13.14664
G1 X88.359 Y86.77 E13.17667
G1 X89.229 Y86.527 E13.20671
G1 X90.117 Y86.361 E13.23676
G1 X91.256 Y86.265 E13.27477
G1 X91.577 Y86.256 E13.28545
G1 X91.863 Y86.252 E13.29497
G1 X108.185 Y86.252 E13.83784
G1 X110.402 Y86.261 E13.91158
G1 X111.419 Y86.253 E13.9454
G1 X127.906 Y86.254 E14.49376
G1 X128.604 Y86.264 E14.51698
G1 X129.506 Y86.317 E14.54703
G1 X130.399 Y86.449 E14.57706
G1 X131.277 Y86.66 E14.60709
G1 X132.133 Y86.948 E14.63713
G1 X132.96 Y87.31 E14.66716
G1 X133.752 Y87.745 E14.69721
G1 X134.503 Y88.247 E14.72726
G1 X135.206 Y88.814 E14.7573
G1 X135.856 Y89.441 E14.78733
G1 X136.448 Y90.123 E14.81737
G1 X136.978 Y90.854 E14.8474
G1 X137.44 Y91.63 E14.87744
G1 X137.833 Y92.443 E14.90747
G1 X138.151 Y93.288 E14.9375
G1 X138.394 Y94.158 E14.96755
G1 X138.559 Y95.046 E14.99759
G1 X138.654 Y96.176 E15.0353
G1 X138.663 Y96.496 E15.04595
G1 X138.667 Y96.783 E15.0555
G1 X138.666 Y122.939 E15.92545
G1 X138.657 Y123.666 E15.94963
G1 X138.606 Y124.568 E15.97968
G1 X138.475 Y125.462 E16.00973
G1 X138.266 Y126.34 E16.03975
G1 X137.98 Y127.197 E16.0698
G1 X137.619 Y128.025 E16.09984
G1 X137.187 Y128.817 E16.12985
G1 X136.686 Y129.569 E16.1599
G1 X136.12 Y130.273 E16.18995
G1 X135.495 Y130.924 E16.21996
G1 X134.814 Y131.518 E16.25002
G1 X134.083 Y132.049 E16.28007
G1 X133.309 Y132.513 E16.31008
G1 X132.496 Y132.907 E16.34013
G1 X131.652 Y133.227 E16.37015
G1 X130.782 Y133.472 E16.40022
G1 X129.895 Y133.638 E16.43023
G1 X128.744 Y133.736 E16.46865
G1 X128.423 Y133.745 E16.47933
G1 X128.136 Y133.749 E16.48888
G1 X111.76 Y133.748 E17.03355
G1 X109.674 Y133.741 E17.10293
G1 X108.616 Y133.749 E17.13812
G1 X92.108 Y133.748 E17.68718
G1 X91.41 Y133.739 E17.71039
G1 X90.509 Y133.688 E17.74041
G1 X89.615 Y133.556 E17.77047
G1 X88.737 Y133.347 E17.80048
G1 X87.88 Y133.06 E17.83054
G1 X87.053 Y132.699 E17.86056
G1 X86.26 Y132.266 E17.89061
G1 X85.509 Y131.765 E17.92063
G1 X84.805 Y131.199 E17.95068
G1 X84.154 Y130.573 E17.98072
G1 X83.561 Y129.892 E18.01075
G1 X83.031 Y129.161 E18.04078
G1 X82.567 Y128.386 E18.07083
G1 X82.173 Y127.573 E18.10087
G1 X81.853 Y126.729 E18.1309
G1 X81.609 Y125.859 E18.16095
G1 X81.443 Y124.971 E18.19099
G1 X81.346 Y123.816 E18.22955
G1 X81.337 Y123.483 E18.24063
G1 X81.333 Y123.207 E18.24981
G1 X81.334 Y96.989 E19.12182
G1 X81.343 Y96.323 E19.14397
G1 X81.395 Y95.422 E19.17399
G1 X81.527 Y94.528 E19.20405
G1 X81.737 Y93.65 E19.23407
G1 X82.024 Y92.794 E19.2641
G1 X82.386 Y91.966 E19.29416
G1 X82.819 Y91.174 E19.32418
G1 X83.321 Y90.423 E19.35423
G1 X83.887 Y89.719 E19.38427
G1 X84.514 Y89.069 E19.41431
G1 F1500 E12.91431
G0 F6000 X109.022 Y95.791
G0 X109.526 Y96.295
G0 X109.526 Y100.759
G0 X106.081 Y105.11
G0 X105.628 Y105.563
G0 X97.63 Y109.553
G1 F1500 E19.41431
G1 F1200 X105.634 Y109.553 E19.68052
G1 X106.184 Y109.513 E19.69886
G1 X106.722 Y109.394 E19.71719
G1 X107.237 Y109.198 E19.73552
G1 X107.718 Y108.93 E19.75383
G1 X108.321 Y108.44 E19.77967
G1 X108.907 Y107.854 E19.80724
G1 X109.267 Y107.437 E19.82556
G1 X109.564 Y106.973 E19.84388
G1 X109.79 Y106.47 E19.86222
G1 X109.941 Y105.94 E19.88055
G1 X109.997 Y105.388 E19.89901
G1 X110.021 Y105.715 E19.90991
G1 X110.139 Y106.253 E19.92823
G1 X110.335 Y106.768 E19.94656
G1 X110.602 Y107.249 E19.96486
G1 X111.094 Y107.854 E19.99079
G1 X111.68 Y108.44 E20.01836
G1 X112.097 Y108.8 E20.03668
G1 X112.561 Y109.097 E20.055
G1 X113.064 Y109.323 E20.07334
G1 X113.594 Y109.474 E20.09167
G1 X114.367 Y109.553 E20.11752
G1 X122.37 Y109.553 E20.3837
G1 X122.37 Y109.713 E20.38902
G1 X114.521 Y109.713 E20.65008
G1 X113.811 Y109.78 E20.6738
G1 X113.627 Y109.815 E20.68003
G1 X112.951 Y110.01 E20.70343
G1 X112.398 Y110.227 E20.72319
G1 X111.929 Y110.043 E20.73994
G1 X111.392 Y109.919 E20.75827
G1 X110.843 Y109.873 E20.7766
G1 X110.293 Y109.907 E20.79493
G1 X109.754 Y110.021 E20.81325
G1 X109.354 Y110.161 E20.82735
G1 X108.492 Y110.517 E20.85836
G1 X108.333 Y110.513 E20.86365
G1 X107.047 Y110.01 E20.90958
G1 X106.396 Y109.82 E20.93214
G1 X106.213 Y109.784 E20.93834
G1 X105.48 Y109.713 E20.96284
G1 X97.63 Y109.713 E21.22393
G1 X97.63 Y109.553 E21.22925
G0 F6000 X97.23 Y109.153
G1 F1200 X105.634 Y109.153 E21.50877
G1 X106.154 Y109.113 E21.52611
G1 X106.661 Y108.994 E21.54343
G1 X107.144 Y108.799 E21.56076
G1 X107.592 Y108.533 E21.57809
G1 X108.038 Y108.157 E21.59749
G1 X108.624 Y107.571 E21.62505
G1 X108.963 Y107.175 E21.64239
G1 X109.238 Y106.733 E21.65971
G1 X109.442 Y106.253 E21.67705
G1 X109.57 Y105.748 E21.69438
G1 X109.62 Y105.165 E21.71384
G1 X109.62 Y104.756 E21.72745
G1 X109.708 Y104.763 E21.73038
G1 X110.229 Y104.768 E21.74771
G1 X110.381 Y104.758 E21.75278
G1 X110.381 Y105.165 E21.76631
G1 X110.421 Y105.685 E21.78366
G1 X110.539 Y106.192 E21.80097
G1 X110.734 Y106.676 E21.81833
G1 X111 Y107.124 E21.83566
G1 X111.377 Y107.571 E21.85511
G1 X111.963 Y108.157 E21.88267
G1 X112.359 Y108.496 E21.90001
G1 X112.801 Y108.771 E21.91732
G1 X113.281 Y108.975 E21.93467
G1 X113.786 Y109.103 E21.952
G1 X114.367 Y109.153 E21.97139
G1 X122.77 Y109.153 E22.25088
G1 X122.77 Y110.113 E22.28281
G1 X114.521 Y110.113 E22.55717
G1 X113.886 Y110.173 E22.57839
G1 X113.702 Y110.208 E22.58461
G1 X113.097 Y110.382 E22.60555
G1 X112.373 Y110.666 E22.63142
G1 X112.244 Y110.593 E22.63635
G1 X111.756 Y110.409 E22.6537
G1 X111.246 Y110.302 E22.67103
G1 X110.726 Y110.274 E22.68835
G1 X110.207 Y110.326 E22.7057
G1 X109.506 Y110.53 E22.72998
G1 X108.556 Y110.922 E22.76416
G1 X108.257 Y110.913 E22.77411
G1 X106.902 Y110.383 E22.8225
G1 X106.319 Y110.213 E22.8427
G1 X106.136 Y110.177 E22.8489
G1 X105.48 Y110.113 E22.87083
G1 X97.23 Y110.113 E23.14522
G1 X97.23 Y109.153 E23.17715
G0 F6000 X96.83 Y108.753
G1 F1200 X105.634 Y108.753 E23.46997
G1 X106.122 Y108.713 E23.48626
G1 X106.597 Y108.594 E23.50255
G1 X107.046 Y108.4 E23.51881
G1 X107.458 Y108.135 E23.53511
G1 X107.755 Y107.874 E23.54826
G1 X108.341 Y107.288 E23.57582
G1 X108.658 Y106.915 E23.5921
G1 X108.91 Y106.495 E23.60839
G1 X109.09 Y106.04 E23.62467
G1 X109.194 Y105.562 E23.64094
G1 X109.22 Y105.165 E23.65417
G1 X109.22 Y104.391 E23.67991
G1 X109.548 Y104.365 E23.69086
G1 X109.802 Y104.369 E23.69931
G1 X110.291 Y104.362 E23.71557
G1 X110.781 Y104.394 E23.73191
G1 X110.781 Y105.165 E23.75755
G1 X110.821 Y105.653 E23.77383
G1 X110.939 Y106.128 E23.79011
G1 X111.133 Y106.578 E23.80641
G1 X111.398 Y106.989 E23.82268
G1 X111.66 Y107.288 E23.8359
G1 X112.246 Y107.874 E23.86346
G1 X112.619 Y108.191 E23.87974
G1 X113.039 Y108.443 E23.89603
G1 X113.494 Y108.623 E23.91231
G1 X113.972 Y108.727 E23.92858
G1 X114.367 Y108.753 E23.94175
G1 X123.17 Y108.753 E24.23453
G1 X123.17 Y110.513 E24.29307
G1 X114.521 Y110.513 E24.58074
G1 X113.96 Y110.566 E24.59948
G1 X113.776 Y110.601 E24.60571
G1 X113.243 Y110.755 E24.62416
G1 X112.343 Y111.107 E24.65631
G1 X112.048 Y110.943 E24.66753
G1 X111.587 Y110.777 E24.68383
G1 X111.106 Y110.688 E24.7001
G1 X110.616 Y110.679 E24.7164
G1 X110.132 Y110.749 E24.73266
G1 X109.659 Y110.9 E24.74918
G1 X108.626 Y111.327 E24.78636
G1 X108.45 Y111.313 E24.79223
G1 X108.182 Y111.313 E24.80114
G1 X106.756 Y110.755 E24.85207
G1 X106.242 Y110.605 E24.86988
G1 X106.059 Y110.569 E24.87608
G1 X105.48 Y110.513 E24.89543
G1 X96.83 Y110.513 E25.18313
G1 X96.83 Y108.753 E25.24167
G0 F6000 X96.43 Y108.353
G1 F1200 X105.634 Y108.353 E25.5478
G1 X106.088 Y108.313 E25.56295
G1 X106.528 Y108.195 E25.57811
G1 X106.94 Y108.001 E25.59325
G1 X107.472 Y107.591 E25.61559
G1 X108.058 Y107.005 E25.64316
G1 X108.351 Y106.656 E25.65831
G1 X108.578 Y106.261 E25.67346
G1 X108.733 Y105.833 E25.6886
G1 X108.82 Y105.166 E25.71098
G1 X108.819 Y104.002 E25.74969
G1 X109.062 Y104.003 E25.75777
G1 X109.516 Y103.965 E25.77293
G1 X109.618 Y103.938 E25.77644
G1 X109.891 Y103.974 E25.78559
G1 X110.346 Y103.953 E25.80074
G1 X110.405 Y103.937 E25.80278
G1 X110.939 Y104.004 E25.82068
G1 X111.182 Y104.003 E25.82876
G1 X111.181 Y105.166 E25.86744
G1 X111.221 Y105.62 E25.8826
G1 X111.339 Y106.06 E25.89775
G1 X111.532 Y106.472 E25.91288
G1 X111.943 Y107.005 E25.93527
G1 X112.529 Y107.591 E25.96283
G1 X112.878 Y107.884 E25.97799
G1 X113.273 Y108.111 E25.99314
G1 X113.701 Y108.266 E26.00828
G1 X114.367 Y108.353 E26.03062
G1 X123.57 Y108.353 E26.33672
G1 X123.57 Y110.913 E26.42186
G1 X114.521 Y110.913 E26.72283
G1 X114.035 Y110.959 E26.73907
G1 X113.851 Y110.994 E26.7453
G1 X113.389 Y111.127 E26.76129
G1 X112.307 Y111.551 E26.79994
G1 X112.252 Y111.514 E26.80215
G1 X111.853 Y111.294 E26.8173
G1 X111.422 Y111.147 E26.83245
G1 X110.971 Y111.078 E26.84762
G1 X110.516 Y111.089 E26.86276
G1 X110.069 Y111.179 E26.87792
G1 X109.812 Y111.27 E26.88699
G1 X108.701 Y111.729 E26.92697
G1 X108.45 Y111.713 E26.93534
G1 X108.105 Y111.713 E26.94681
G1 X106.61 Y111.128 E27.00021
G1 X106.165 Y110.998 E27.01563
G1 X105.982 Y110.962 E27.02183
G1 X105.48 Y110.913 E27.03861
G1 X96.43 Y110.913 E27.33961
G1 X96.43 Y108.353 E27.42476
