;FLAVOR:Marlin
;TIME:10778
;Filament used: 9.10502m
;Layer height: 0.2
;MINX:84
;MINY:84
;MINZ:0.2
;MAXX:136
;MAXY:136
;MAXZ:103
;Generated with Cura_SteamEngine 4.8.0
M140 S60
M105
M190 S60
M104 S200
M105
M109 S200
M82 ;absolute extrusion mode
; Script based on an original created by tjjfvi (https://github.com/tjjfvi)
; An up-to-date version of the tjjfvi's original script can be found
; here:  https://csi.t6.fyi/
; Note - This script will only work in Cura V4.2 and above!
; --- Global Settings
; layer_height = 0.2
; smooth_spiralized_contours = True
; magic_mesh_surface_mode = normal
; machine_extruder_count = 1
; --- Single Extruder Settings
; speed_z_hop = 5
; retraction_amount = 6.5
; retraction_hop = 0.2
; retraction_hop_enabled = False
; retraction_enable = True
; retraction_speed = 25
; retraction_retract_speed = 25
; retraction_prime_speed = 25
; speed_travel = 150.0
; Ender 3 Custom Start G-code
G92 E0 ; Reset Extruder
G28 ; Home all axes
G1 Z2.0 F3000 ; Move Z Axis up little to prevent scratching of Heat Bed
G1 X0.1 Y20 Z0.3 F5000.0 ; Move to start position
G1 X0.1 Y200.0 Z0.3 F1500.0 E15 ; Draw the first line
G1 X0.4 Y200.0 Z0.3 F5000.0 ; Move to side a little
G1 X0.4 Y20 Z0.3 F1500.0 E30 ; Draw the second line
G92 E0 ; Reset Extruder
G1 Z2.0 F3000 ; Move Z Axis up little to prevent scratching of Heat Bed
G1 X5 Y20 Z0.3 F5000.0 ; Move over to prevent blob squish
G92 E0
G92 E0
G1 F1500 E-6.5
;LAYER_COUNT:515
;LAYER:0
M107
G0 F6000 X87.198 Y87.264 Z0.2
;TYPE:SKIRT
G1 F1500 E0
G1 F600 X87.886 Y86.627 E0.03119
G1 X88.626 Y86.051 E0.06237
G1 X89.412 Y85.539 E0.09357
G1 X90.239 Y85.097 E0.12476
G1 X91.101 Y84.727 E0.15596
G1 X91.991 Y84.431 E0.18716
G1 X92.903 Y84.213 E0.21835
G1 X93.83 Y84.072 E0.24953
G1 X94.701 Y84.013 E0.27857
G1 X95.022 Y84.004 E0.28925
G1 X95.33 Y84 E0.29949
G1 X124.293 Y84 E1.26281
G1 X125.149 Y84.011 E1.29128
G1 X126.085 Y84.065 E1.32246
G1 X127.013 Y84.197 E1.35364
G1 X127.927 Y84.409 E1.38485
G1 X128.819 Y84.698 E1.41603
G1 X129.684 Y85.061 E1.44723
G1 X130.514 Y85.497 E1.47842
G1 X131.305 Y86.002 E1.50963
G1 X132.049 Y86.573 E1.54082
G1 X132.742 Y87.205 E1.57202
G1 X133.379 Y87.893 E1.6032
G1 X133.954 Y88.634 E1.6344
G1 X134.465 Y89.42 E1.66558
G1 X134.907 Y90.248 E1.6968
G1 X135.276 Y91.11 E1.72798
G1 X135.571 Y92 E1.75917
G1 X135.789 Y92.912 E1.79036
G1 X135.929 Y93.84 E1.82157
G1 X135.987 Y94.701 E1.85027
G1 X135.996 Y95.021 E1.86092
G1 X136 Y95.33 E1.8712
G1 X135.999 Y124.4 E2.83807
G1 X135.99 Y125.127 E2.86225
G1 X135.939 Y126.064 E2.89347
G1 X135.807 Y126.992 E2.92464
G1 X135.598 Y127.906 E2.95583
G1 X135.311 Y128.799 E2.98702
G1 X134.949 Y129.665 E3.01824
G1 X134.515 Y130.496 E3.04942
G1 X134.011 Y131.287 E3.08062
G1 X133.442 Y132.032 E3.1118
G1 X132.811 Y132.727 E3.14302
G1 X132.124 Y133.365 E3.1742
G1 X131.385 Y133.942 E3.20539
G1 X130.599 Y134.454 E3.23659
G1 X129.773 Y134.897 E3.26776
G1 X128.911 Y135.269 E3.29899
G1 X128.022 Y135.565 E3.33015
G1 X127.11 Y135.785 E3.36135
G1 X126.183 Y135.926 E3.39254
G1 X125.299 Y135.987 E3.42201
G1 X124.978 Y135.996 E3.43269
G1 X124.67 Y136 E3.44294
G1 X95.565 Y135.999 E4.41098
G1 X94.867 Y135.99 E4.43419
G1 X93.931 Y135.938 E4.46537
G1 X93.002 Y135.806 E4.49658
G1 X92.088 Y135.596 E4.52777
G1 X91.195 Y135.309 E4.55897
G1 X90.33 Y134.946 E4.59017
G1 X89.499 Y134.512 E4.62135
G1 X88.708 Y134.008 E4.65255
G1 X87.963 Y133.438 E4.68375
G1 X87.269 Y132.807 E4.71494
G1 X86.632 Y132.12 E4.74611
G1 X86.055 Y131.38 E4.77732
G1 X85.543 Y130.594 E4.80852
G1 X85.1 Y129.767 E4.83972
G1 X84.729 Y128.906 E4.8709
G1 X84.433 Y128.016 E4.9021
G1 X84.214 Y127.104 E4.93329
G1 X84.073 Y126.177 E4.96448
G1 X84.013 Y125.288 E4.99412
G1 X84.004 Y124.955 E5.00519
G1 X84 Y124.658 E5.01507
G1 X84.001 Y95.525 E5.98404
G1 X84.01 Y94.86 E6.00616
G1 X84.063 Y93.924 E6.03734
G1 X84.195 Y92.995 E6.06855
G1 X84.406 Y92.081 E6.09975
G1 X84.694 Y91.189 E6.13093
G1 X85.057 Y90.324 E6.16213
G1 X85.492 Y89.493 E6.19333
G1 X85.996 Y88.703 E6.22449
G1 X86.566 Y87.958 E6.25569
G1 X87.198 Y87.264 E6.28691
G0 F6000 X87.589 Y87.439
G1 F600 X88.274 Y86.823 E6.31755
G1 X89.01 Y86.27 E6.34817
G1 X89.791 Y85.782 E6.3788
G1 X90.611 Y85.364 E6.40941
G1 X91.465 Y85.019 E6.44005
G1 X92.345 Y84.749 E6.47066
G1 X93.245 Y84.557 E6.50127
G1 X94.159 Y84.443 E6.53191
G1 X94.712 Y84.413 E6.55033
G1 X95.033 Y84.404 E6.56101
G1 X95.33 Y84.4 E6.57089
G1 X124.293 Y84.4 E7.5342
G1 X125.143 Y84.411 E7.56247
G1 X126.062 Y84.464 E7.59309
G1 X126.973 Y84.597 E7.62371
G1 X127.869 Y84.808 E7.65433
G1 X128.743 Y85.096 E7.68493
G1 X129.59 Y85.459 E7.71558
G1 X130.401 Y85.894 E7.74619
G1 X131.171 Y86.398 E7.7768
G1 X131.895 Y86.967 E7.80743
G1 X132.567 Y87.597 E7.83807
G1 X133.182 Y88.282 E7.86868
G1 X133.735 Y89.018 E7.8993
G1 X134.222 Y89.799 E7.92992
G1 X134.639 Y90.62 E7.96054
G1 X134.984 Y91.474 E7.99118
G1 X135.253 Y92.354 E8.02178
G1 X135.445 Y93.255 E8.05242
G1 X135.558 Y94.168 E8.08302
G1 X135.587 Y94.712 E8.10114
G1 X135.596 Y95.032 E8.11179
G1 X135.6 Y95.33 E8.1217
G1 X135.599 Y124.395 E9.08841
G1 X135.59 Y125.122 E9.11259
G1 X135.539 Y126.041 E9.1432
G1 X135.408 Y126.953 E9.17385
G1 X135.198 Y127.849 E9.20445
G1 X134.912 Y128.724 E9.23507
G1 X134.551 Y129.571 E9.2657
G1 X134.117 Y130.383 E9.29632
G1 X133.615 Y131.155 E9.32695
G1 X133.047 Y131.88 E9.35758
G1 X132.419 Y132.553 E9.3882
G1 X131.735 Y133.169 E9.41881
G1 X131 Y133.723 E9.44942
G1 X130.22 Y134.212 E9.48004
G1 X129.4 Y134.631 E9.51067
G1 X128.547 Y134.977 E9.54129
G1 X127.667 Y135.248 E9.57191
G1 X126.767 Y135.441 E9.60253
G1 X125.853 Y135.556 E9.63317
G1 X125.288 Y135.587 E9.65199
G1 X124.967 Y135.596 E9.66267
G1 X124.67 Y135.6 E9.67255
G1 X95.57 Y135.599 E10.64042
G1 X94.872 Y135.59 E10.66363
G1 X93.953 Y135.538 E10.69425
G1 X93.042 Y135.407 E10.72486
G1 X92.146 Y135.197 E10.75547
G1 X91.271 Y134.91 E10.7861
G1 X90.424 Y134.548 E10.81673
G1 X89.612 Y134.114 E10.84736
G1 X88.841 Y133.612 E10.87796
G1 X88.116 Y133.044 E10.90859
G1 X87.443 Y132.415 E10.93923
G1 X86.828 Y131.731 E10.96982
G1 X86.274 Y130.996 E11.00043
G1 X85.786 Y130.215 E11.03106
G1 X85.367 Y129.395 E11.06169
G1 X85.021 Y128.542 E11.09231
G1 X84.751 Y127.662 E11.12292
G1 X84.558 Y126.761 E11.15357
G1 X84.444 Y125.848 E11.18417
G1 X84.413 Y125.277 E11.20319
G1 X84.404 Y124.944 E11.21427
G1 X84.4 Y124.658 E11.22379
G1 X84.401 Y95.531 E12.19255
G1 X84.41 Y94.866 E12.21467
G1 X84.462 Y93.946 E12.24532
G1 X84.594 Y93.035 E12.27594
G1 X84.805 Y92.139 E12.30655
G1 X85.092 Y91.264 E12.33718
G1 X85.455 Y90.418 E12.3678
G1 X85.889 Y89.606 E12.39842
G1 X86.392 Y88.835 E12.42904
G1 X86.961 Y88.111 E12.45967
G1 X87.589 Y87.439 E12.49026
G0 F6000 X87.981 Y87.617
G1 F600 X88.662 Y87.024 E12.5203
G1 X89.394 Y86.494 E12.55035
G1 X90.169 Y86.031 E12.58038
G1 X90.982 Y85.638 E12.61041
G1 X91.827 Y85.318 E12.64047
G1 X92.696 Y85.075 E12.67048
G1 X93.584 Y84.909 E12.70052
G1 X94.723 Y84.813 E12.73854
G1 X95.044 Y84.804 E12.74922
G1 X95.33 Y84.8 E12.75874
G1 X124.293 Y84.8 E13.72205
G1 X125.137 Y84.811 E13.75012
G1 X126.039 Y84.864 E13.78018
G1 X126.932 Y84.996 E13.8102
G1 X127.81 Y85.207 E13.84023
G1 X128.666 Y85.495 E13.87027
G1 X129.493 Y85.857 E13.9003
G1 X130.285 Y86.292 E13.93035
G1 X131.036 Y86.794 E13.9604
G1 X131.739 Y87.361 E13.99044
G1 X132.389 Y87.988 E14.02047
G1 X132.981 Y88.67 E14.05051
G1 X133.511 Y89.401 E14.08054
G1 X133.973 Y90.177 E14.11058
G1 X134.366 Y90.99 E14.14061
G1 X134.684 Y91.835 E14.17064
G1 X134.927 Y92.705 E14.20069
G1 X135.092 Y93.593 E14.23073
G1 X135.187 Y94.723 E14.26844
G1 X135.196 Y95.043 E14.27909
G1 X135.2 Y95.33 E14.28864
G1 X135.199 Y124.39 E15.25518
G1 X135.19 Y125.117 E15.27936
G1 X135.139 Y126.019 E15.30941
G1 X135.008 Y126.913 E15.33946
G1 X134.799 Y127.791 E15.36948
G1 X134.513 Y128.648 E15.39953
G1 X134.152 Y129.476 E15.42957
G1 X133.72 Y130.268 E15.45958
G1 X133.219 Y131.02 E15.48963
G1 X132.653 Y131.724 E15.51968
G1 X132.028 Y132.375 E15.54969
G1 X131.347 Y132.969 E15.57975
G1 X130.616 Y133.5 E15.6098
G1 X129.842 Y133.964 E15.63981
G1 X129.029 Y134.358 E15.66986
G1 X128.185 Y134.678 E15.69988
G1 X127.315 Y134.923 E15.72994
G1 X126.428 Y135.089 E15.75996
G1 X125.277 Y135.187 E15.79838
G1 X124.956 Y135.196 E15.80906
G1 X124.67 Y135.2 E15.81857
G1 X95.575 Y135.199 E16.78628
G1 X94.877 Y135.19 E16.80949
G1 X93.976 Y135.139 E16.83951
G1 X93.082 Y135.007 E16.86957
G1 X92.204 Y134.798 E16.89959
G1 X91.347 Y134.511 E16.92965
G1 X90.52 Y134.15 E16.95966
G1 X89.727 Y133.717 E16.98971
G1 X88.976 Y133.216 E17.01973
G1 X88.272 Y132.65 E17.04978
G1 X87.621 Y132.024 E17.07982
G1 X87.028 Y131.343 E17.10985
G1 X86.498 Y130.612 E17.13988
G1 X86.034 Y129.837 E17.16993
G1 X85.64 Y129.024 E17.19998
G1 X85.32 Y128.18 E17.23
G1 X85.076 Y127.31 E17.26005
G1 X84.91 Y126.422 E17.2901
G1 X84.813 Y125.267 E17.32865
G1 X84.804 Y124.934 E17.33973
G1 X84.8 Y124.658 E17.34891
G1 X84.801 Y95.536 E18.31751
G1 X84.81 Y94.871 E18.33963
G1 X84.862 Y93.969 E18.36968
G1 X84.994 Y93.076 E18.3997
G1 X85.204 Y92.198 E18.42973
G1 X85.491 Y91.341 E18.45979
G1 X85.853 Y90.514 E18.48982
G1 X86.286 Y89.722 E18.51984
G1 X86.788 Y88.971 E18.54988
G1 X87.355 Y88.267 E18.57995
G1 X87.981 Y87.617 E18.60996
G1 F1500 E12.10996
;MESH:Pillar.stl
G0 F6000 X95.414 Y94.335
G0 X95.414 Y95.414
G0 X122.818 Y95.485
G0 X123.426 Y95.681
G0 X124.4 Y96.4
;TYPE:WALL-INNER
G1 F1500 E18.60996
G1 F600 X124.28 Y96.206 E18.61755
G1 X124.057 Y95.943 E18.62902
G1 X123.794 Y95.72 E18.64049
G1 X123.6 Y95.6 E18.64807
G1 X123.794 Y95.6 E18.64879
G1 X124.057 Y95.6 E18.65355
G1 X124.4 Y95.6 E18.66496
G1 X124.4 Y95.943 E18.67518
G1 X124.4 Y96.206 E18.67994
G1 X124.4 Y96.4 E18.68065
G0 F6000 X124.527 Y97.39
G0 X124.4 Y98.6
G1 F600 X124.4 Y98.794 E18.68711
G1 X124.4 Y99.057 E18.69585
G1 X124.4 Y99.117 E18.69785
G1 X124.4 Y120.883 E19.42179
G1 X124.4 Y120.948 E19.42395
G1 X124.4 Y121.209 E19.43263
G1 X124.4 Y121.4 E19.43898
G1 X124.282 Y121.209 E19.44079
G1 X124.061 Y120.948 E19.44813
G1 X124.012 Y120.906 E19.45012
G1 X123.798 Y120.722 E19.45951
G1 X123.503 Y120.54 E19.47104
G1 X123.183 Y120.408 E19.48255
G1 X122.85 Y120.327 E19.49395
G1 X122.506 Y120.299 E19.50543
G1 X122.164 Y120.324 E19.51684
G1 X121.826 Y120.403 E19.52838
G1 X121.503 Y120.536 E19.54
G1 X121.209 Y120.718 E19.5515
G1 X120.943 Y120.943 E19.56309
G1 X120.72 Y121.206 E19.57456
G1 X120.54 Y121.497 E19.58594
G1 X120.408 Y121.817 E19.59745
G1 X120.327 Y122.15 E19.60885
G1 X120.299 Y122.494 E19.62033
G1 X120.324 Y122.836 E19.63173
G1 X120.403 Y123.174 E19.64328
G1 X120.536 Y123.497 E19.6549
G1 X120.718 Y123.791 E19.6664
G1 X120.904 Y124.01 E19.67595
G1 X120.939 Y124.052 E19.67777
G1 X121.202 Y124.278 E19.68931
G1 X121.4 Y124.4 E19.69704
G1 X121.202 Y124.4 E19.69779
G1 X120.939 Y124.4 E19.70263
G1 X120.884 Y124.4 E19.70436
G1 X99.117 Y124.4 E20.42833
G1 X99.057 Y124.4 E20.43033
G1 X98.794 Y124.4 E20.43907
G1 X98.6 Y124.4 E20.44552
G1 X98.794 Y124.28 E20.44737
G1 X99.057 Y124.057 E20.45485
G1 X99.095 Y124.012 E20.45668
G1 X99.28 Y123.794 E20.46619
G1 X99.462 Y123.5 E20.47769
G1 X99.595 Y123.179 E20.48924
G1 X99.674 Y122.844 E20.50069
G1 X99.702 Y122.5 E20.51217
G1 X99.674 Y122.156 E20.52365
G1 X99.595 Y121.821 E20.5351
G1 X99.462 Y121.5 E20.54666
G1 X99.28 Y121.206 E20.55816
G1 X99.057 Y120.943 E20.56962
G1 X98.794 Y120.72 E20.58109
G1 X98.5 Y120.538 E20.59259
G1 X98.179 Y120.405 E20.60415
G1 X97.844 Y120.326 E20.6156
G1 X97.5 Y120.298 E20.62708
G1 X97.156 Y120.326 E20.63856
G1 X96.821 Y120.405 E20.65
G1 X96.5 Y120.538 E20.66156
G1 X96.206 Y120.72 E20.67306
G1 X95.988 Y120.905 E20.68257
G1 X95.943 Y120.943 E20.68453
G1 X95.72 Y121.206 E20.696
G1 X95.6 Y121.4 E20.70359
G1 X95.6 Y121.206 E20.7043
G1 X95.6 Y120.943 E20.70906
G1 X95.6 Y120.883 E20.71093
G1 X95.6 Y99.117 E21.43487
G1 X95.6 Y99.052 E21.43704
G1 X95.6 Y98.791 E21.44572
G1 X95.6 Y98.6 E21.45207
G1 X95.718 Y98.791 E21.45387
G1 X95.939 Y99.052 E21.46121
G1 X95.988 Y99.094 E21.46321
G1 X96.202 Y99.278 E21.4726
G1 X96.497 Y99.46 E21.48413
G1 X96.817 Y99.592 E21.49564
G1 X97.15 Y99.673 E21.50704
G1 X97.494 Y99.701 E21.51852
G1 X97.836 Y99.676 E21.52992
G1 X98.174 Y99.597 E21.54147
G1 X98.497 Y99.464 E21.55308
G1 X98.791 Y99.282 E21.56459
G1 X99.057 Y99.057 E21.57617
G1 X99.28 Y98.794 E21.58764
G1 X99.462 Y98.5 E21.59914
G1 X99.595 Y98.179 E21.6107
G1 X99.674 Y97.844 E21.62215
G1 X99.702 Y97.5 E21.63363
G1 X99.674 Y97.156 E21.64511
G1 X99.595 Y96.82 E21.65659
G1 X99.462 Y96.5 E21.66811
G1 X99.28 Y96.205 E21.67964
G1 X99.095 Y95.988 E21.68912
G1 X99.057 Y95.943 E21.69108
G1 X98.794 Y95.719 E21.70257
G1 X98.6 Y95.6 E21.71014
G1 X98.794 Y95.6 E21.71086
G1 X99.057 Y95.6 E21.71561
G1 X99.117 Y95.6 E21.71748
G1 X120.883 Y95.6 E22.44142
G1 X120.943 Y95.6 E22.44342
G1 X121.206 Y95.6 E22.45217
G1 X121.4 Y95.6 E22.45862
G1 X121.206 Y95.72 E22.46047
G1 X120.943 Y95.943 E22.46794
G1 X120.905 Y95.988 E22.46977
G1 X120.72 Y96.206 E22.47928
G1 X120.54 Y96.497 E22.49066
G1 X120.408 Y96.817 E22.50218
G1 X120.327 Y97.15 E22.51358
G1 X120.299 Y97.494 E22.52505
G1 X120.324 Y97.836 E22.53646
G1 X120.403 Y98.174 E22.548
G1 X120.536 Y98.497 E22.55962
G1 X120.718 Y98.791 E22.57112
G1 X120.943 Y99.057 E22.58271
G1 X121.206 Y99.28 E22.59418
G1 X121.5 Y99.462 E22.60568
G1 X121.821 Y99.595 E22.61724
G1 X122.156 Y99.674 E22.62868
G1 X122.5 Y99.702 E22.64016
G1 X122.844 Y99.674 E22.65164
G1 X123.179 Y99.595 E22.66309
G1 X123.5 Y99.462 E22.67465
G1 X123.794 Y99.28 E22.68615
G1 X124.012 Y99.095 E22.69566
G1 X124.057 Y99.057 E22.69749
G1 X124.28 Y98.794 E22.70496
G1 X124.4 Y98.6 E22.70681
G1 F1500 E16.20681
G0 F6000 X123.426 Y99.319
G0 X122.475 Y99.599
G0 X122.5 Y99.301
;TYPE:WALL-OUTER
G1 F1500 E22.70681
G1 F600 X122.781 Y99.278 E22.71619
G1 X123.056 Y99.213 E22.72559
G1 X123.317 Y99.105 E22.73498
G1 X123.558 Y98.956 E22.74441
G1 X123.773 Y98.773 E22.7538
G1 X123.956 Y98.558 E22.76319
G1 X124.105 Y98.317 E22.77261
G1 X124.213 Y98.056 E22.782
G1 X124.278 Y97.781 E22.7914
G1 X124.301 Y97.5 E22.80078
G1 X124.278 Y97.219 E22.81016
G1 X124.213 Y96.944 E22.81956
G1 X124.105 Y96.683 E22.82895
G1 X123.956 Y96.442 E22.83838
G1 X123.773 Y96.227 E22.84777
G1 X123.558 Y96.044 E22.85716
G1 X123.317 Y95.895 E22.86658
G1 X123.056 Y95.787 E22.87598
G1 X122.781 Y95.722 E22.88537
G1 X122.5 Y95.699 E22.89475
G1 X122.219 Y95.722 E22.90413
G1 X121.944 Y95.787 E22.91353
G1 X121.683 Y95.895 E22.92292
G1 X121.442 Y96.044 E22.93235
G1 X121.227 Y96.227 E22.94174
G1 X121.044 Y96.442 E22.95113
G1 X120.897 Y96.68 E22.96043
G1 X120.789 Y96.941 E22.96983
G1 X120.723 Y97.214 E22.97917
G1 X120.7 Y97.495 E22.98854
G1 X120.721 Y97.776 E22.99792
G1 X120.785 Y98.052 E23.00734
G1 X120.893 Y98.314 E23.01677
G1 X121.042 Y98.555 E23.02619
G1 X121.227 Y98.773 E23.0357
G1 X121.442 Y98.956 E23.04509
G1 X121.683 Y99.105 E23.05451
G1 X121.944 Y99.213 E23.06391
G1 X122.219 Y99.278 E23.07331
G1 X122.5 Y99.301 E23.08268
G0 F6000 X122.5 Y99.741
G1 F1500 E16.58268
G0 F6000 X120.58 Y98.892
G0 X120.387 Y96.419
G0 X120.816 Y95.794
G0 X97.182 Y95.485
G0 X96.574 Y95.681
G0 X95.6 Y96.4
;TYPE:WALL-INNER
G1 F1500 E23.08268
G1 F600 X95.6 Y96.205 E23.08917
G1 X95.6 Y95.943 E23.09788
G1 X95.6 Y95.6 E23.10929
G1 X95.943 Y95.6 E23.1207
G1 X96.206 Y95.6 E23.12945
G1 X96.4 Y95.6 E23.1359
G1 X96.206 Y95.719 E23.13772
G1 X95.943 Y95.943 E23.14521
G1 X95.72 Y96.205 E23.15268
G1 X95.6 Y96.4 E23.15451
G1 F1500 E16.65451
G0 F6000 X95.459 Y97.494
G0 X95.556 Y98.125
G0 X95.848 Y98.696
G0 X96.297 Y99.148
G0 X96.867 Y99.44
G0 X97.842 Y99.571
G0 X97.776 Y99.279
;TYPE:WALL-OUTER
G1 F1500 E23.15451
G1 F600 X98.052 Y99.215 E23.16393
G1 X98.314 Y99.107 E23.17336
G1 X98.555 Y98.958 E23.18278
G1 X98.773 Y98.773 E23.19229
G1 X98.956 Y98.558 E23.20168
G1 X99.105 Y98.317 E23.2111
G1 X99.213 Y98.056 E23.2205
G1 X99.278 Y97.781 E23.2299
G1 X99.301 Y97.5 E23.23928
G1 X99.278 Y97.219 E23.24865
G1 X99.213 Y96.943 E23.25808
G1 X99.105 Y96.683 E23.26745
G1 X98.956 Y96.441 E23.2769
G1 X98.773 Y96.227 E23.28627
G1 X98.558 Y96.043 E23.29568
G1 X98.317 Y95.895 E23.30508
G1 X98.056 Y95.787 E23.31448
G1 X97.781 Y95.722 E23.32388
G1 X97.5 Y95.699 E23.33325
G1 X97.219 Y95.722 E23.34263
G1 X96.944 Y95.787 E23.35203
