;FLAVOR:Marlin
;TIME:49830
;Filament used: 20.5209m
;Layer height: 0.2
;MINX:14.008
;MINY:14.008
;MINZ:0.2
;MAXX:205.992
;MAXY:205.992
;MAXZ:3
;Generated with Cura_SteamEngine 4.8.0
M140 S60
M105
M190 S60
M104 S200
M105
M109 S200
M82 ;absolute extrusion mode
; Script based on an original created by tjjfvi (https://github.com/tjjfvi)
; An up-to-date version of the tjjfvi's original script can be found
; here:  https://csi.t6.fyi/
; Note - This script will only work in Cura V4.2 and above!
; --- Global Settings
; layer_height = 0.2
; smooth_spiralized_contours = True
; magic_mesh_surface_mode = normal
; machine_extruder_count = 1
; --- Single Extruder Settings
; speed_z_hop = 5
; retraction_amount = 6.5
; retraction_hop = 0.2
; retraction_hop_enabled = False
; retraction_enable = True
; retraction_speed = 25
; retraction_retract_speed = 25
; retraction_prime_speed = 25
; speed_travel = 150.0
; Ender 3 Custom Start G-code
G92 E0 ; Reset Extruder
G28 ; Home all axes
G1 Z2.0 F3000 ; Move Z Axis up little to prevent scratching of Heat Bed
G1 X0.1 Y20 Z0.3 F5000.0 ; Move to start position
G1 X0.1 Y200.0 Z0.3 F1500.0 E15 ; Draw the first line
G1 X0.4 Y200.0 Z0.3 F5000.0 ; Move to side a little
G1 X0.4 Y20 Z0.3 F1500.0 E30 ; Draw the second line
G92 E0 ; Reset Extruder
G1 Z2.0 F3000 ; Move Z Axis up little to prevent scratching of Heat Bed
G1 X5 Y20 Z0.3 F5000.0 ; Move over to prevent blob squish
G92 E0
G92 E0
G1 F1500 E-6.5
;LAYER_COUNT:15
;LAYER:0
M107
G0 F6000 X41.585 Y42.662 Z0.2
;TYPE:SKIRT
G1 F1500 E0
G1 F600 X42.668 Y41.58 E0.05092
G1 X43.355 Y40.91 E0.08283
G1 X44.352 Y39.962 E0.12859
G1 X45.075 Y39.291 E0.1614
G1 X46.113 Y38.351 E0.20798
G1 X46.858 Y37.695 E0.24099
G1 X47.824 Y36.861 E0.28344
G1 X48.652 Y36.166 E0.31939
G1 X49.651 Y35.348 E0.36234
G1 X50.482 Y34.683 E0.39774
G1 X51.516 Y33.877 E0.44134
G1 X52.317 Y33.268 E0.47481
G1 X53.437 Y32.44 E0.52114
G1 X54.237 Y31.863 E0.55394
G1 X55.33 Y31.093 E0.59841
G1 X56.136 Y30.54 E0.63092
G1 X57.308 Y29.759 E0.67777
G1 X58.155 Y29.209 E0.71135
G1 X59.251 Y28.516 E0.75448
G1 X60.072 Y28.011 E0.78654
G1 X61.349 Y27.247 E0.83604
G1 X62.127 Y26.794 E0.86598
G1 X63.359 Y26.098 E0.91304
G1 X64.18 Y25.646 E0.94421
G1 X65.416 Y24.987 E0.9908
G1 X66.269 Y24.545 E1.02276
G1 X67.53 Y23.911 E1.0697
G1 X68.383 Y23.496 E1.10125
G1 X69.692 Y22.878 E1.1494
G1 X70.514 Y22.502 E1.17946
G1 X71.756 Y21.951 E1.22465
G1 X72.699 Y21.548 E1.25876
G1 X73.98 Y21.02 E1.30484
G1 X74.877 Y20.662 E1.33697
G1 X76.162 Y20.167 E1.38277
G1 X77.08 Y19.827 E1.41533
G1 X78.379 Y19.363 E1.46121
G1 X79.284 Y19.052 E1.49303
G1 X80.62 Y18.612 E1.53982
G1 X81.511 Y18.331 E1.57089
G1 X82.888 Y17.914 E1.61874
G1 X83.762 Y17.661 E1.64901
G1 X85.156 Y17.276 E1.69711
G1 X86.063 Y17.038 E1.7283
G1 X87.41 Y16.701 E1.77448
G1 X88.357 Y16.477 E1.80684
G1 X89.701 Y16.176 E1.85265
G1 X90.656 Y15.975 E1.88511
G1 X92.055 Y15.697 E1.93255
G1 X92.941 Y15.533 E1.96252
G1 X94.335 Y15.292 E2.00957
G1 X95.391 Y15.123 E2.04514
G1 X96.571 Y14.949 E2.08482
G1 X97.673 Y14.8 E2.1218
G1 X98.984 Y14.64 E2.16573
G1 X99.985 Y14.529 E2.19923
G1 X101.34 Y14.396 E2.24451
G1 X102.338 Y14.311 E2.27782
G1 X103.64 Y14.215 E2.32125
G1 X104.741 Y14.149 E2.35793
G1 X105.981 Y14.089 E2.39922
G1 X107.044 Y14.051 E2.4346
G1 X108.409 Y14.019 E2.48001
G1 X109.359 Y14.008 E2.51161
G1 X110.642 Y14.008 E2.55429
G1 X111.725 Y14.021 E2.59031
G1 X113.091 Y14.055 E2.63576
G1 X114.152 Y14.095 E2.67107
G1 X115.393 Y14.156 E2.7124
G1 X116.505 Y14.225 E2.74945
G1 X117.784 Y14.321 E2.79211
G1 X118.769 Y14.407 E2.825
G1 X120.166 Y14.545 E2.87169
G1 X121.179 Y14.658 E2.90559
G1 X122.444 Y14.815 E2.94799
G1 X123.565 Y14.968 E2.98562
G1 X124.745 Y15.144 E3.0253
G1 X125.796 Y15.314 E3.06071
G1 X127.195 Y15.558 E3.10794
G1 X128.084 Y15.724 E3.13802
G1 X129.459 Y15.998 E3.18465
G1 X130.457 Y16.21 E3.21859
G1 X131.767 Y16.505 E3.26325
G1 X132.678 Y16.722 E3.2944
G1 X134.099 Y17.08 E3.34314
G1 X135.007 Y17.32 E3.37437
G1 X136.332 Y17.688 E3.42011
G1 X137.234 Y17.95 E3.45135
G1 X138.612 Y18.369 E3.49926
G1 X139.506 Y18.653 E3.53046
G1 X140.851 Y19.098 E3.57758
G1 X141.746 Y19.407 E3.60907
G1 X143.052 Y19.875 E3.65521
G1 X143.965 Y20.216 E3.68762
G1 X145.247 Y20.711 E3.73333
G1 X146.151 Y21.073 E3.76572
G1 X147.449 Y21.612 E3.81247
G1 X148.295 Y21.975 E3.84309
G1 X149.614 Y22.56 E3.89108
G1 X150.494 Y22.964 E3.92328
G1 X151.706 Y23.538 E3.96789
G1 X152.595 Y23.973 E4.0008
G1 X153.851 Y24.607 E4.0476
G1 X154.71 Y25.053 E4.07979
G1 X155.925 Y25.704 E4.12564
G1 X156.784 Y26.177 E4.15825
G1 X157.955 Y26.841 E4.20303
G1 X158.796 Y27.332 E4.23542
G1 X160.013 Y28.063 E4.28264
G1 X160.795 Y28.546 E4.31321
G1 X162.045 Y29.338 E4.36242
G1 X162.813 Y29.839 E4.39292
G1 X163.969 Y30.612 E4.43917
G1 X164.778 Y31.168 E4.47182
G1 X165.858 Y31.93 E4.51579
G1 X166.725 Y32.558 E4.55139
G1 X167.768 Y33.333 E4.59461
G1 X168.542 Y33.923 E4.62698
G1 X169.674 Y34.808 E4.67477
G1 X170.426 Y35.411 E4.70683
G1 X171.456 Y36.257 E4.75116
G1 X172.258 Y36.933 E4.78605
G1 X173.243 Y37.784 E4.82935
G1 X174.001 Y38.453 E4.86297
G1 X175.024 Y39.382 E4.90893
G1 X175.745 Y40.053 E4.94169
G1 X176.743 Y41.005 E4.98757
G1 X177.426 Y41.673 E5.01934
G1 X178.421 Y42.669 E5.06617
G1 X179.127 Y43.394 E5.09982
G1 X180.017 Y44.33 E5.14278
G1 X180.711 Y45.078 E5.17672
G1 X181.617 Y46.078 E5.2216
G1 X182.258 Y46.803 E5.25379
G1 X183.202 Y47.899 E5.3019
G1 X183.834 Y48.653 E5.33462
G1 X184.679 Y49.685 E5.37898
G1 X185.256 Y50.406 E5.4097
G1 X186.168 Y51.575 E5.45901
G1 X186.751 Y52.343 E5.49108
G1 X187.521 Y53.383 E5.53412
G1 X188.151 Y54.255 E5.5699
G1 X188.91 Y55.335 E5.61381
G1 X189.463 Y56.143 E5.64637
G1 X190.23 Y57.293 E5.69235
G1 X190.738 Y58.074 E5.72333
G1 X191.531 Y59.328 E5.77268
G1 X192.005 Y60.099 E5.80278
G1 X192.735 Y61.319 E5.85007
G1 X193.229 Y62.168 E5.88274
G1 X193.888 Y63.334 E5.92729
G1 X194.356 Y64.185 E5.95959
G1 X195.01 Y65.411 E6.00581
G1 X195.457 Y66.272 E6.03807
G1 X196.087 Y67.527 E6.08478
G1 X196.519 Y68.415 E6.11762
G1 X197.095 Y69.632 E6.16241
G1 X197.493 Y70.505 E6.19432
G1 X198.08 Y71.832 E6.24258
G1 X198.44 Y72.673 E6.273
G1 X198.979 Y73.977 E6.31993
G1 X199.335 Y74.871 E6.35194
G1 X199.833 Y76.162 E6.39796
G1 X200.173 Y77.08 E6.43052
G1 X200.637 Y78.379 E6.4764
G1 X200.947 Y79.282 E6.50816
G1 X201.386 Y80.613 E6.55477
G1 X201.68 Y81.542 E6.58718
G1 X202.079 Y82.863 E6.63308
G1 X202.351 Y83.805 E6.66569
G1 X202.715 Y85.121 E6.7111
G1 X202.962 Y86.063 E6.74349
G1 X203.302 Y87.422 E6.79009
G1 X203.526 Y88.373 E6.82258
G1 X203.827 Y89.711 E6.8682
G1 X204.016 Y90.611 E6.89878
G1 X204.305 Y92.065 E6.94809
G1 X204.467 Y92.941 E6.97772
G1 X204.708 Y94.337 E7.02484
G1 X204.877 Y95.39 E7.06031
G1 X205.051 Y96.568 E7.09991
G1 X205.203 Y97.692 E7.13764
G1 X205.356 Y98.945 E7.17962
G1 X205.471 Y99.983 E7.21436
G1 X205.604 Y101.351 E7.26007
G1 X205.69 Y102.351 E7.29346
G1 X205.781 Y103.594 E7.33491
G1 X205.851 Y104.741 E7.37313
G1 X205.911 Y105.981 E7.41442
G1 X205.949 Y107.044 E7.4498
G1 X205.981 Y108.408 E7.49518
G1 X205.992 Y109.358 E7.52678
G1 X205.991 Y110.777 E7.57397
G1 X205.979 Y111.725 E7.60551
G1 X205.945 Y113.091 E7.65095
G1 X205.905 Y114.152 E7.68627
G1 X205.844 Y115.392 E7.72756
G1 X205.775 Y116.51 E7.76481
G1 X205.679 Y117.788 E7.80744
G1 X205.591 Y118.796 E7.84109
G1 X205.456 Y120.153 E7.88645
G1 X205.346 Y121.14 E7.91948
G1 X205.182 Y122.461 E7.96376
G1 X205.032 Y123.565 E8.00081
G1 X204.856 Y124.745 E8.04049
G1 X204.686 Y125.796 E8.0759
G1 X204.442 Y127.195 E8.12314
G1 X204.276 Y128.084 E8.15322
G1 X204.002 Y129.459 E8.19985
G1 X203.79 Y130.457 E8.23378
G1 X203.495 Y131.767 E8.27845
G1 X203.278 Y132.678 E8.30959
G1 X202.92 Y134.099 E8.35833
G1 X202.68 Y135.007 E8.38957
G1 X202.312 Y136.332 E8.43531
G1 X202.05 Y137.234 E8.46655
G1 X201.631 Y138.612 E8.51445
G1 X201.347 Y139.506 E8.54565
G1 X200.902 Y140.851 E8.59277
G1 X200.593 Y141.746 E8.62426
G1 X200.125 Y143.052 E8.67041
G1 X199.784 Y143.965 E8.70282
G1 X199.29 Y145.244 E8.74842
G1 X198.933 Y146.137 E8.78041
G1 X198.395 Y147.436 E8.82717
G1 X197.992 Y148.373 E8.8611
G1 X197.446 Y149.601 E8.9058
G1 X197.068 Y150.423 E8.93589
G1 X196.443 Y151.744 E8.9845
G1 X196.027 Y152.595 E9.016
G1 X195.393 Y153.851 E9.0628
G1 X194.947 Y154.71 E9.09499
G1 X194.296 Y155.925 E9.14083
G1 X193.823 Y156.784 E9.17345
G1 X193.159 Y157.955 E9.21822
G1 X192.669 Y158.793 E9.25051
G1 X191.936 Y160.016 E9.29793
G1 X191.525 Y160.683 E9.32399
G1 X190.662 Y162.045 E9.37762
G1 X190.161 Y162.813 E9.40812
G1 X189.388 Y163.969 E9.45437
G1 X188.832 Y164.778 E9.48702
G1 X188.07 Y165.858 E9.53098
G1 X187.442 Y166.725 E9.56659
G1 X186.667 Y167.768 E9.60981
G1 X186.077 Y168.542 E9.64218
G1 X185.192 Y169.674 E9.68997
G1 X184.589 Y170.426 E9.72203
G1 X183.743 Y171.456 E9.76636
G1 X183.109 Y172.209 E9.7991
G1 X182.172 Y173.294 E9.84678
G1 X181.528 Y174.022 E9.87911
G1 X180.631 Y175.008 E9.92345
G1 X179.919 Y175.774 E9.95823
G1 X179.032 Y176.705 E10.001
G1 X178.327 Y177.426 E10.03454
G1 X177.332 Y178.42 E10.08132
G1 X176.645 Y179.09 E10.11323
G1 X175.648 Y180.038 E10.15899
G1 X174.925 Y180.709 E10.1918
G1 X173.9 Y181.637 E10.23779
G1 X173.148 Y182.301 E10.27115
G1 X172.157 Y183.154 E10.31464
G1 X171.344 Y183.837 E10.34996
G1 X170.335 Y184.663 E10.39333
G1 X169.567 Y185.277 E10.42603
G1 X168.422 Y186.171 E10.47435
G1 X167.669 Y186.741 E10.50576
G1 X166.611 Y187.526 E10.54958
G1 X165.745 Y188.151 E10.5851
G1 X164.665 Y188.91 E10.629
G1 X163.857 Y189.463 E10.66157
G1 X162.707 Y190.23 E10.70754
G1 X161.926 Y190.738 E10.73853
G1 X160.672 Y191.531 E10.78788
G1 X159.901 Y192.005 E10.81798
G1 X158.681 Y192.735 E10.86527
G1 X157.832 Y193.229 E10.89794
G1 X156.666 Y193.888 E10.94249
G1 X155.815 Y194.356 E10.97479
G1 X154.589 Y195.01 E11.021
G1 X153.728 Y195.457 E11.05327
G1 X152.591 Y196.029 E11.0956
G1 X151.617 Y196.504 E11.13165
G1 X150.308 Y197.122 E11.17979
G1 X149.48 Y197.501 E11.21008
G1 X148.246 Y198.047 E11.25496
G1 X147.303 Y198.451 E11.28908
G1 X146.013 Y198.983 E11.33549
G1 X145.129 Y199.335 E11.36714
G1 X143.838 Y199.833 E11.41316
G1 X142.92 Y200.173 E11.44572
G1 X141.621 Y200.637 E11.4916
G1 X140.718 Y200.947 E11.52335
G1 X139.381 Y201.388 E11.57018
G1 X138.486 Y201.67 E11.60139
G1 X137.107 Y202.087 E11.64931
G1 X136.2 Y202.35 E11.68072
G1 X134.877 Y202.715 E11.72636
G1 X133.974 Y202.952 E11.75741
G1 X132.527 Y203.314 E11.80703
G1 X131.657 Y203.52 E11.83676
G1 X130.313 Y203.822 E11.88258
G1 X129.459 Y204.002 E11.91161
G1 X127.954 Y204.301 E11.96264
G1 X127.058 Y204.467 E11.99295
G1 X125.664 Y204.708 E12.04
G1 X124.61 Y204.877 E12.07551
G1 X123.432 Y205.051 E12.11511
G1 X122.308 Y205.203 E12.15284
G1 X121.054 Y205.356 E12.19485
G1 X120.017 Y205.471 E12.22956
G1 X118.649 Y205.604 E12.27527
G1 X117.649 Y205.69 E12.30865
G1 X116.36 Y205.785 E12.35164
G1 X115.258 Y205.851 E12.38836
G1 X114.018 Y205.911 E12.42965
G1 X112.956 Y205.949 E12.465
G1 X111.592 Y205.981 E12.51037
G1 X110.642 Y205.992 E12.54197
G1 X109.223 Y205.991 E12.58917
G1 X108.278 Y205.979 E12.6206
G1 X106.907 Y205.945 E12.66622
G1 X105.849 Y205.905 E12.70143
G1 X104.609 Y205.844 E12.74272
G1 X103.491 Y205.775 E12.77998
G1 X102.213 Y205.679 E12.82261
G1 X101.205 Y205.591 E12.85626
G1 X99.848 Y205.456 E12.90162
G1 X98.861 Y205.346 E12.93465
G1 X97.54 Y205.182 E12.97892
G1 X96.436 Y205.032 E13.01598
G1 X95.256 Y204.856 E13.05566
G1 X94.205 Y204.686 E13.09107
G1 X92.806 Y204.442 E13.1383
G1 X91.917 Y204.276 E13.16838
G1 X90.534 Y204 E13.21529
G1 X89.57 Y203.795 E13.24807
G1 X88.226 Y203.493 E13.29388
G1 X87.282 Y203.268 E13.32616
G1 X85.926 Y202.927 E13.37267
G1 X85.029 Y202.689 E13.40353
G1 X83.621 Y202.299 E13.45213
G1 X82.769 Y202.05 E13.48165
G1 X81.39 Y201.631 E13.52959
G1 X80.485 Y201.344 E13.56116
G1 X79.183 Y200.914 E13.60677
G1 X78.209 Y200.578 E13.64104
G1 X76.971 Y200.134 E13.68478
G1 X76.031 Y199.783 E13.71815
G1 X74.734 Y199.282 E13.7644
G1 X73.819 Y198.915 E13.79719
G1 X72.631 Y198.422 E13.83997
G1 X71.628 Y197.992 E13.87627
G1 X70.394 Y197.443 E13.92119
G1 X69.578 Y197.068 E13.95106
G1 X68.263 Y196.446 E13.99944
G1 X67.363 Y196.006 E14.03276
G1 X66.186 Y195.412 E14.07661
G1 X65.3 Y194.951 E14.10983
G1 X64.072 Y194.294 E14.15615
G1 X63.27 Y193.852 E14.18661
G1 X61.98 Y193.121 E14.23592
G1 X61.225 Y192.679 E14.26502
G1 X59.974 Y191.929 E14.31353
G1 X59.162 Y191.427 E14.34529
G1 X58.02 Y190.703 E14.39026
G1 X57.202 Y190.17 E14.42273
G1 X56.006 Y189.37 E14.47059
G1 X55.293 Y188.879 E14.49938
G1 X54.062 Y188.012 E14.54946
G1 X53.334 Y187.485 E14.57935
G1 X52.208 Y186.649 E14.626
G1 X51.404 Y186.036 E14.65963
G1 X50.359 Y185.218 E14.70376
G1 X49.577 Y184.591 E14.7371
G1 X48.548 Y183.746 E14.78139
G1 X47.713 Y183.042 E14.81771
G1 X46.782 Y182.237 E14.85865
G1 X46 Y181.547 E14.89334
G1 X44.984 Y180.625 E14.93897
G1 X44.319 Y180.008 E14.96914
G1 X43.308 Y179.045 E15.01558
G1 X42.544 Y178.299 E15.05109
G1 X41.609 Y177.364 E15.09507
G1 X40.888 Y176.622 E15.12948
G1 X39.96 Y175.646 E15.17428
G1 X39.283 Y174.916 E15.20739
G1 X38.364 Y173.9 E15.25296
G1 X37.696 Y173.142 E15.28656
G1 X36.864 Y172.178 E15.32891
G1 X36.164 Y171.345 E15.3651
G1 X35.33 Y170.326 E15.4089
G1 X34.699 Y169.537 E15.4425
G1 X33.877 Y168.483 E15.48696
G1 X33.271 Y167.685 E15.52029
G1 X32.43 Y166.549 E15.5673
G1 X31.862 Y165.761 E15.59961
G1 X31.111 Y164.694 E15.643
G1 X30.518 Y163.828 E15.67791
G1 X29.776 Y162.715 E15.7224
G1 X29.208 Y161.841 E15.75707
G1 X28.52 Y160.753 E15.79989
G1 X28.011 Y159.927 E15.83216
G1 X27.247 Y158.65 E15.88165
G1 X26.796 Y157.875 E15.91147
G1 X26.092 Y156.63 E15.95904
G1 X25.649 Y155.823 E15.98966
G1 X24.987 Y154.583 E16.03642
G1 X24.547 Y153.733 E16.06825
G1 X23.91 Y152.467 E16.11539
G1 X23.47 Y151.565 E16.14877
G1 X22.92 Y150.398 E16.19168
G1 X22.507 Y149.496 E16.22467
G1 X21.92 Y148.169 E16.27293
G1 X21.56 Y147.328 E16.30336
G1 X21.021 Y146.024 E16.35029
G1 X20.653 Y145.101 E16.38334
G1 X20.178 Y143.864 E16.42741
G1 X19.809 Y142.87 E16.46268
G1 X19.382 Y141.675 E16.50488
G1 X19.042 Y140.686 E16.53967
G1 X18.629 Y139.434 E16.58352
G1 X18.319 Y138.453 E16.61774
G1 X17.919 Y137.13 E16.66371
G1 X17.648 Y136.193 E16.69615
G1 X17.285 Y134.879 E16.74149
G1 X17.038 Y133.937 E16.77388
G1 X16.699 Y132.58 E16.8204
G1 X16.478 Y131.644 E16.85239
G1 X16.179 Y130.309 E16.89789
G1 X15.974 Y129.337 E16.93093
G1 X15.698 Y127.949 E16.978
G1 X15.533 Y127.054 E17.00827
G1 X15.288 Y125.636 E17.05613
G1 X15.143 Y124.73 E17.08665
G1 X14.934 Y123.314 E17.13425
G1 X14.81 Y122.401 E17.1649
G1 X14.635 Y120.977 E17.21262
G1 X14.529 Y120.014 E17.24484
G1 X14.396 Y118.66 E17.29009
G1 X14.311 Y117.663 E17.32337
G1 X14.215 Y116.361 E17.36679
G1 X14.149 Y115.259 E17.40351
G1 X14.089 Y114.019 E17.4448
G1 X14.051 Y112.956 E17.48018
G1 X14.019 Y111.591 E17.52559
G1 X14.008 Y110.641 E17.55719
G1 X14.009 Y109.222 E17.60439
G1 X14.021 Y108.272 E17.63599
G1 X14.055 Y106.913 E17.6812
G1 X14.094 Y105.885 E17.71542
G1 X14.159 Y104.556 E17.75968
G1 X14.223 Y103.534 E17.79373
G1 X14.323 Y102.193 E17.83846
G1 X14.407 Y101.233 E17.87051
G1 X14.547 Y99.811 E17.91804
G1 X14.651 Y98.889 E17.9489
G1 X14.829 Y97.455 E17.99696
G1 X14.951 Y96.568 E18.02674
G1 X15.163 Y95.14 E18.07475
G1 X15.31 Y94.233 E18.10531
G1 X15.557 Y92.813 E18.15325
G1 X15.725 Y91.916 E18.1836
G1 X16 Y90.538 E18.23034
G1 X16.205 Y89.57 E18.26325
G1 X16.507 Y88.226 E18.30907
G1 X16.731 Y87.288 E18.34114
G1 X17.07 Y85.934 E18.38757
G1 X17.323 Y84.976 E18.42052
G1 X17.682 Y83.688 E18.46499
G1 X17.96 Y82.728 E18.49824
G1 X18.32 Y81.541 E18.53949
G1 X18.67 Y80.44 E18.57792
G1 X19.08 Y79.201 E18.62132
G1 X19.402 Y78.27 E18.65409
G1 X19.87 Y76.961 E18.70032
G1 X20.208 Y76.053 E18.73255
G1 X20.735 Y74.692 E18.78109
G1 X21.077 Y73.839 E18.81166
G1 X21.603 Y72.572 E18.85729
G1 X21.976 Y71.704 E18.88871
G1 X22.561 Y70.385 E18.9367
G1 X22.966 Y69.502 E18.96901
G1 X23.48 Y68.416 E19.00897
G1 X23.961 Y67.433 E19.04537
G1 X24.628 Y66.108 E19.09471
G1 X25.039 Y65.318 E19.12433
G1 X25.695 Y64.095 E19.17049
G1 X26.175 Y63.221 E19.20365
G1 X26.865 Y62.006 E19.25013
G1 X27.349 Y61.177 E19.28205
G1 X28.032 Y60.038 E19.32623
G1 X28.571 Y59.164 E19.36038
G1 X29.31 Y58 E19.40624
